; generated by Slic3r 0.9.7 on 2012-11-29 at 13:21:20

; layer_height = 0.25
; perimeters = 3
; top_solid_layers = 3
; bottom_solid_layers = 3
; fill_density = 0.2
; perimeter_speed = 30
; infill_speed = 60
; travel_speed = 200
; scale = 1
; nozzle_diameter = 0.35
; filament_diameter = 2.85
; extrusion_multiplier = 1
; perimeters extrusion width = 0.39mm
; infill extrusion width = 0.39mm
; support material extrusion width = 0.39mm
; first layer extrusion width = 0.39mm

M190 S60 ; wait for bed temperature to be reached
M104 S175 ; set temperature
G28 ; home all axes
M109 S175 ; wait for temperature to be reached
G90 ; use absolute coordinates
G21 ; set units to millimeters
G92 E0
M82 ; use absolute distances for extrusion
G1 F1800.000 E-1.00000
G92 E0
G1 Z0.250 F12000.000
G1 X81.610 Y82.832
G1 F1800.000 E1.00000
G1 X84.640 Y80.342 F900.000 E1.05915
G1 X85.240 Y79.942 E1.07002
G1 X85.560 Y79.762 E1.07556
G1 X88.450 Y78.412 E1.12367
G1 X90.950 Y77.282 E1.16504
G1 X91.490 Y77.062 E1.17384
G1 X92.330 Y76.822 E1.18701
G1 X92.610 Y76.762 E1.19133
G1 X93.190 Y76.682 E1.20016
G1 X93.770 Y76.652 E1.20892
G1 X94.350 Y76.662 E1.21767
G1 X97.140 Y76.942 E1.25996
G1 X97.780 Y77.042 E1.26973
G1 X100.280 Y77.532 E1.30815
G1 X100.930 Y77.692 E1.31824
G1 X101.250 Y77.792 E1.32330
G1 X101.870 Y78.042 E1.33338
G1 X102.470 Y78.352 E1.34357
G1 X104.970 Y79.792 E1.38708
G1 X105.550 Y80.162 E1.39746
G1 X106.090 Y80.592 E1.40787
G1 X106.590 Y81.062 E1.41822
G1 X109.090 Y83.692 E1.47294
G1 X109.460 Y84.122 E1.48150
G1 X109.800 Y84.582 E1.49012
G1 X110.110 Y85.062 E1.49874
G1 X110.250 Y85.322 E1.50319
G1 X110.600 Y86.102 E1.51609
G1 X110.780 Y86.642 E1.52467
G1 X110.850 Y86.922 E1.52903
G1 X111.000 Y87.762 E1.54189
G1 X111.050 Y88.332 E1.55052
G1 X111.050 Y101.652 E1.75141
G1 X110.970 Y102.492 E1.76414
G1 X110.860 Y103.042 E1.77259
G1 X110.700 Y103.592 E1.78123
G1 X110.510 Y104.112 E1.78958
G1 X110.270 Y104.632 E1.79822
G1 X109.990 Y105.122 E1.80673
G1 X109.680 Y105.582 E1.81510
G1 X109.330 Y106.032 E1.82370
G1 X108.950 Y106.442 E1.83213
G1 X106.450 Y108.932 E1.88534
G1 X105.970 Y109.372 E1.89516
G1 X105.170 Y109.942 E1.90998
G1 X104.600 Y110.262 E1.91983
G1 X99.300 Y112.622 E2.00733
G1 X99.000 Y112.752 E2.01226
G1 X98.370 Y112.962 E2.02228
G1 X97.730 Y113.112 E2.03219
G1 X97.070 Y113.202 E2.04224
G1 X94.240 Y113.352 E2.08498
G1 X93.620 Y113.352 E2.09433
G1 X93.010 Y113.302 E2.10356
G1 X92.400 Y113.202 E2.11288
G1 X91.800 Y113.042 E2.12225
G1 X91.510 Y112.942 E2.12688
G1 X90.930 Y112.712 E2.13629
G1 X88.430 Y111.572 E2.17772
G1 X85.560 Y110.232 E2.22549
G1 X85.240 Y110.052 E2.23103
G1 X84.630 Y109.642 E2.24212
G1 X81.600 Y107.142 E2.30136
G1 X80.950 Y106.472 E2.31544
G1 X80.570 Y105.982 E2.32479
G1 X80.400 Y105.732 E2.32935
G1 X80.080 Y105.192 E2.33882
G1 X79.820 Y104.632 E2.34813
G1 X77.200 Y97.682 E2.46014
G1 X77.000 Y97.072 E2.46983
G1 X76.920 Y96.762 E2.47465
G1 X76.810 Y96.132 E2.48430
G1 X76.750 Y95.492 E2.49399
G1 X76.750 Y94.502 E2.50893
G1 X76.770 Y94.182 E2.51376
G1 X76.920 Y93.232 E2.52827
G1 X77.090 Y92.612 E2.53796
G1 X79.700 Y85.642 E2.65021
G1 X79.940 Y85.072 E2.65954
G1 X80.400 Y84.252 E2.67372
G1 X80.760 Y83.742 E2.68313
G1 X80.960 Y83.502 E2.68784
G1 X81.569 Y82.872 E2.70105
G1 X81.610 Y82.832 E2.70192
G1 X81.870 Y83.122 F12000.000
G1 X84.870 Y80.652 F900.000 E2.76053
G1 X85.150 Y80.452 E2.76572
G1 X85.740 Y80.102 E2.77606
G1 X88.610 Y78.762 E2.82383
G1 X91.390 Y77.512 E2.86980
G1 X91.950 Y77.322 E2.87872
G1 X92.530 Y77.172 E2.88776
G1 X93.410 Y77.052 E2.90115
G1 X93.710 Y77.032 E2.90569
G1 X94.300 Y77.042 E2.91458
G1 X97.100 Y77.332 E2.95704
G1 X97.700 Y77.422 E2.96619
G1 X100.200 Y77.912 E3.00461
G1 X100.820 Y78.062 E3.01423
G1 X101.420 Y78.272 E3.02382
G1 X102.000 Y78.532 E3.03340
G1 X104.780 Y80.122 E3.08170
G1 X105.330 Y80.472 E3.09154
G1 X105.590 Y80.672 E3.09648
G1 X105.840 Y80.882 E3.10141
G1 X106.310 Y81.332 E3.11122
G1 X108.810 Y83.962 E3.16595
G1 X109.360 Y84.612 E3.17879
G1 X109.820 Y85.332 E3.19167
G1 X110.080 Y85.852 E3.20044
G1 X110.380 Y86.652 E3.21333
G1 X110.520 Y87.202 E3.22189
G1 X110.620 Y87.762 E3.23047
G1 X110.650 Y88.052 E3.23486
G1 X110.670 Y88.622 E3.24346
G1 X110.670 Y101.372 E3.43575
G1 X110.650 Y101.932 E3.44420
G1 X110.580 Y102.492 E3.45272
G1 X110.390 Y103.312 E3.46541
G1 X110.100 Y104.102 E3.47810
G1 X109.710 Y104.842 E3.49072
G1 X109.240 Y105.542 E3.50343
G1 X108.680 Y106.172 E3.51615
G1 X106.180 Y108.662 E3.56936
G1 X105.480 Y109.262 E3.58327
G1 X104.970 Y109.612 E3.59259
G1 X104.430 Y109.922 E3.60199
G1 X99.150 Y112.272 E3.68915
G1 X98.860 Y112.392 E3.69388
G1 X98.270 Y112.592 E3.70328
G1 X97.660 Y112.732 E3.71271
G1 X97.040 Y112.822 E3.72216
G1 X94.220 Y112.962 E3.76475
G1 X93.930 Y112.972 E3.76912
G1 X93.350 Y112.952 E3.77787
G1 X93.060 Y112.922 E3.78227
G1 X92.480 Y112.822 E3.79115
G1 X91.910 Y112.672 E3.80004
G1 X91.360 Y112.482 E3.80881
G1 X88.590 Y111.222 E3.85471
G1 X85.740 Y109.892 E3.90214
G1 X85.140 Y109.532 E3.91269
G1 X84.580 Y109.112 E3.92325
G1 X82.080 Y107.042 E3.97220
G1 X81.440 Y106.442 E3.98543
G1 X81.060 Y105.992 E3.99431
G1 X80.720 Y105.522 E4.00306
G1 X80.420 Y105.012 E4.01199
G1 X80.170 Y104.482 E4.02082
G1 X77.560 Y97.552 E4.13251
G1 X77.370 Y96.972 E4.14171
G1 X77.190 Y96.082 E4.15541
G1 X77.140 Y95.472 E4.16464
G1 X77.130 Y94.822 E4.17444
G1 X77.190 Y93.912 E4.18819
G1 X77.300 Y93.322 E4.19725
G1 X77.460 Y92.732 E4.20647
G1 X80.060 Y85.772 E4.31852
G1 X80.420 Y84.972 E4.33175
G1 X80.720 Y84.462 E4.34067
G1 X81.250 Y83.752 E4.35403
G1 X81.828 Y83.161 E4.36649
G1 X81.870 Y83.122 E4.36737
G1 X82.130 Y83.402 F12000.000
G1 X84.840 Y81.162 F900.000 E4.42039
G1 X85.360 Y80.772 E4.43019
G1 X85.920 Y80.442 E4.44000
G1 X88.770 Y79.112 E4.48743
G1 X91.530 Y77.872 E4.53306
G1 X91.790 Y77.772 E4.53726
G1 X92.330 Y77.612 E4.54576
G1 X92.880 Y77.502 E4.55422
G1 X93.440 Y77.432 E4.56273
G1 X94.000 Y77.422 E4.57118
G1 X94.560 Y77.452 E4.57963
G1 X97.060 Y77.712 E4.61754
G1 X97.630 Y77.792 E4.62622
G1 X100.130 Y78.282 E4.66464
G1 X101.000 Y78.522 E4.67825
G1 X101.280 Y78.622 E4.68274
G1 X101.820 Y78.872 E4.69171
G1 X104.590 Y80.462 E4.73988
G1 X105.350 Y80.972 E4.75368
G1 X105.810 Y81.372 E4.76288
G1 X106.030 Y81.592 E4.76757
G1 X108.530 Y84.222 E4.82230
G1 X109.050 Y84.842 E4.83450
G1 X109.350 Y85.292 E4.84266
G1 X109.610 Y85.762 E4.85076
G1 X109.720 Y86.002 E4.85474
G1 X109.830 Y86.252 E4.85886
G1 X110.010 Y86.762 E4.86701
G1 X110.140 Y87.282 E4.87510
G1 X110.230 Y87.812 E4.88321
G1 X110.280 Y88.352 E4.89138
G1 X110.280 Y101.652 E5.09197
G1 X110.190 Y102.482 E5.10456
G1 X110.070 Y103.032 E5.11305
G1 X109.990 Y103.292 E5.11715
G1 X109.800 Y103.822 E5.12564
G1 X109.560 Y104.332 E5.13415
G1 X109.280 Y104.812 E5.14253
G1 X108.960 Y105.272 E5.15098
G1 X108.600 Y105.692 E5.15932
G1 X105.910 Y108.382 E5.21669
G1 X105.250 Y108.962 E5.22995
G1 X104.760 Y109.292 E5.23885
G1 X104.250 Y109.572 E5.24763
G1 X103.990 Y109.702 E5.25201
G1 X98.990 Y111.922 E5.33452
G1 X98.440 Y112.132 E5.34340
G1 X97.870 Y112.292 E5.35233
G1 X97.000 Y112.442 E5.36564
G1 X94.210 Y112.582 E5.40777
G1 X93.650 Y112.582 E5.41622
G1 X93.380 Y112.562 E5.42030
G1 X92.830 Y112.492 E5.42866
G1 X92.290 Y112.382 E5.43697
G1 X91.760 Y112.222 E5.44532
G1 X91.500 Y112.122 E5.44953
G1 X88.750 Y110.872 E5.49508
G1 X85.920 Y109.552 E5.54218
G1 X85.350 Y109.212 E5.55219
G1 X84.830 Y108.822 E5.56199
G1 X82.330 Y106.752 E5.61094
G1 X81.720 Y106.182 E5.62353
G1 X81.370 Y105.762 E5.63178
G1 X81.040 Y105.312 E5.64019
G1 X80.760 Y104.832 E5.64858
G1 X80.530 Y104.332 E5.65688
G1 X77.920 Y97.412 E5.76842
G1 X77.750 Y96.872 E5.77695
G1 X77.570 Y96.032 E5.78991
G1 X77.520 Y95.462 E5.79854
G1 X77.520 Y94.532 E5.81257
G1 X77.570 Y93.962 E5.82120
G1 X77.670 Y93.402 E5.82977
G1 X77.740 Y93.122 E5.83413
G1 X77.920 Y92.582 E5.84271
G1 X80.520 Y85.652 E5.95434
G1 X80.760 Y85.152 E5.96271
G1 X81.200 Y84.442 E5.97530
G1 X81.730 Y83.792 E5.98795
G1 X82.088 Y83.441 E5.99551
G1 X82.130 Y83.402 E5.99638
G1 X88.907 Y87.532 F12000.000
G1 X88.907 Y86.098 F1800.000 E6.01801
G1 X91.407 Y84.934 E6.05960
G1 X91.407 Y86.089 E6.07701
G1 X91.407 Y88.216 F12000.000
G1 X91.407 Y89.171 F1800.000 E6.09141
G1 X93.907 Y88.747 F12000.000
G1 X93.907 Y87.103 F1800.000 E6.11620
G1 X93.907 Y85.750 F12000.000
G1 X93.907 Y83.802 F1800.000 E6.14559
G1 X96.407 Y84.064 E6.18350
G1 X96.407 Y85.750 E6.20892
G1 X96.407 Y87.722 F12000.000
G1 X96.407 Y88.484 F1800.000 E6.22041
G1 X98.907 Y89.996 F12000.000
G1 X98.907 Y88.534 F1800.000 E6.24246
G1 X101.407 Y91.304 F12000.000
G1 X101.407 Y92.887 F1800.000 E6.26633
G1 X103.907 Y91.251 F12000.000
G1 X103.907 Y88.626 F1800.000 E6.30592
G1 X98.907 Y86.270 F12000.000
G1 X98.907 Y84.553 F1800.000 E6.33181
G1 X101.407 Y85.997 E6.37535
G1 X101.407 Y87.714 E6.40124
G1 X96.407 Y92.347 F12000.000
G1 X96.407 Y94.194 F1800.000 E6.42908
G1 X96.407 Y94.497 F12000.000
G1 X96.407 Y95.344 F1800.000 E6.44187
G1 X96.407 Y95.712 F12000.000
G1 X96.407 Y96.832 F1800.000 E6.45877
G1 X96.407 Y95.982 F12000.000
G1 X96.407 Y97.603 F1800.000 E6.48320
G1 X93.907 Y95.832 F12000.000
G1 X93.907 Y95.414 F1800.000 E6.48951
G1 X93.907 Y97.884 F12000.000
G1 X93.907 Y96.351 F1800.000 E6.51263
G1 X91.407 Y100.333 F12000.000
G1 X91.407 Y101.784 F1800.000 E6.53450
G1 X91.407 Y103.911 F12000.000
G1 X91.407 Y105.066 F1800.000 E6.55192
G1 X93.907 Y106.209 E6.59337
G1 X93.907 Y104.657 E6.61678
G1 X93.907 Y102.897 F12000.000
G1 X93.907 Y101.816 F1800.000 E6.63308
G1 X96.407 Y101.441 F12000.000
G1 X96.407 Y102.757 F1800.000 E6.65292
G1 X96.407 Y104.158 F12000.000
G1 X96.407 Y106.089 F1800.000 E6.68205
G1 X98.907 Y104.976 E6.72332
G1 X98.907 Y103.626 E6.74368
G1 X98.907 Y101.644 F12000.000
G1 X98.907 Y100.397 F1800.000 E6.76249
G1 X101.407 Y102.033 F12000.000
G1 X101.407 Y103.863 F1800.000 E6.79009
G1 X103.907 Y101.374 E6.84330
G1 X103.907 Y98.385 E6.88838
G1 X101.407 Y96.956 F12000.000
G1 X101.407 Y98.696 F1800.000 E6.91463
G1 X93.907 Y94.188 F12000.000
G1 X93.907 Y94.168 F1800.000 E6.91495
G1 X93.907 Y93.945 F12000.000
G1 X93.907 Y92.216 F1800.000 E6.94102
G1 X88.907 Y92.612 F12000.000
G1 X88.907 Y90.598 F1800.000 E6.97139
G1 X83.907 Y95.174 F12000.000
G1 X83.907 Y94.826 F1800.000 E6.97663
G1 X86.407 Y88.161 E7.08398
G1 X86.407 Y90.642 E7.12139
G1 X86.407 Y99.358 F12000.000
G1 X86.407 Y101.839 F1800.000 E7.15879
G1 X88.907 Y103.902 E7.20768
G1 X88.907 Y102.468 E7.22932
G1 X88.907 Y99.402 F12000.000
G1 X88.907 Y96.795 F1800.000 E7.26864
G1 F1800.000 E6.26864
G92 E0
G1 X94.756 Y95.101 F12000.000
G1 F1800.000 E1.00000
G1 X94.736 Y95.000 F900.000 E1.00155
G1 X94.756 Y94.899 E1.00311
G1 X94.813 Y94.813 E1.00466
G1 X94.899 Y94.756 E1.00622
G1 X95.000 Y94.736 E1.00777
G1 X95.101 Y94.756 E1.00933
G1 X95.187 Y94.813 E1.01088
G1 X95.244 Y94.899 E1.01244
G1 X95.264 Y95.000 E1.01399
G1 X95.244 Y95.101 E1.01555
G1 X95.187 Y95.187 E1.01710
G1 X95.101 Y95.244 E1.01866
G1 X95.000 Y95.264 E1.02021
G1 X94.899 Y95.244 E1.02176
G1 X94.788 Y95.149 E1.02397
G1 X94.756 Y95.101 E1.02484
G1 X94.393 Y95.251 F12000.000
G1 X94.343 Y95.000 F900.000 E1.02870
G1 X94.393 Y94.749 E1.03256
G1 X94.536 Y94.536 E1.03643
G1 X94.749 Y94.393 E1.04029
G1 X95.000 Y94.343 E1.04416
G1 X95.251 Y94.393 E1.04802
G1 X95.464 Y94.536 E1.05188
G1 X95.607 Y94.749 E1.05575
G1 X95.657 Y95.000 E1.05961
G1 X95.607 Y95.251 E1.06347
G1 X95.464 Y95.464 E1.06734
G1 X95.251 Y95.607 E1.07120
G1 X95.000 Y95.657 E1.07506
G1 X94.749 Y95.607 E1.07893
G1 X94.536 Y95.464 E1.08279
G1 X94.425 Y95.299 E1.08578
G1 X94.393 Y95.251 E1.08665
G1 X94.031 Y95.401 F12000.000
G1 X93.951 Y95.000 F900.000 E1.09283
G1 X94.031 Y94.599 E1.09900
G1 X94.258 Y94.258 E1.10517
G1 X94.599 Y94.031 E1.11135
G1 X95.000 Y93.951 E1.11752
G1 X95.401 Y94.031 E1.12369
G1 X95.742 Y94.258 E1.12986
G1 X95.969 Y94.599 E1.13604
G1 X96.049 Y95.000 E1.14221
G1 X95.969 Y95.401 E1.14838
G1 X95.742 Y95.742 E1.15455
G1 X95.401 Y95.969 E1.16073
G1 X95.000 Y96.049 E1.16690
G1 X94.599 Y95.969 E1.17307
G1 X94.258 Y95.742 E1.17924
G1 X94.063 Y95.449 E1.18455
G1 X94.031 Y95.401 E1.18542
G1 F1800.000 E0.18542
G92 E0
G1 X99.824 Y89.325 F12000.000
G1 F1800.000 E1.00000
G1 X100.989 Y90.566 F900.000 E1.02567
G1 X101.785 Y91.910 E1.04922
G1 X102.282 Y93.387 E1.07273
G1 X102.436 Y94.621 E1.09149
G1 X102.309 Y96.468 E1.11940
G1 X101.887 Y97.836 E1.14100
G1 X101.147 Y99.206 E1.16448
G1 X100.642 Y99.835 E1.17665
G1 X99.930 Y100.592 E1.19232
G1 X98.660 Y101.495 E1.21583
G1 X97.229 Y102.114 E1.23933
G1 X95.702 Y102.422 E1.26283
G1 X94.143 Y102.406 E1.28635
G1 X92.622 Y102.066 E1.30985
G1 X91.205 Y101.417 E1.33336
G1 X90.059 Y100.582 E1.35474
G1 X89.006 Y99.433 E1.37824
G1 X88.215 Y98.090 E1.40175
G1 X87.721 Y96.612 E1.42525
G1 X87.564 Y95.379 E1.44400
G1 X87.691 Y93.532 E1.47192
G1 X88.112 Y92.165 E1.49349
G1 X88.852 Y90.795 E1.51697
G1 X89.256 Y90.283 E1.52681
G1 X89.964 Y89.507 E1.54266
G1 X91.216 Y88.580 E1.56615
G1 X92.634 Y87.933 E1.58965
G1 X94.163 Y87.588 E1.61330
G1 X95.696 Y87.577 E1.63642
G1 X97.239 Y87.892 E1.66017
G1 X98.668 Y88.513 E1.68367
G1 X99.824 Y89.325 E1.70498
G1 F1800.000 E0.70498
G92 E0
G1 Z0.400 F12000.000
G1 X88.907 Y91.765
G1 F1800.000 E1.00000
G1 X88.907 Y89.798 F3600.000 E1.01779
G1 X91.407 Y87.833 F12000.000
G1 X91.407 Y89.089 F3600.000 E1.02916
G1 X93.907 Y88.184 F12000.000
G1 X93.907 Y87.045 F3600.000 E1.03946
G1 X96.407 Y87.112 F12000.000
G1 X96.407 Y88.251 F3600.000 E1.04977
G1 X98.907 Y89.317 F12000.000
G1 X98.907 Y87.973 F3600.000 E1.06193
G1 X101.407 Y90.147 F12000.000
G1 X101.407 Y92.409 F3600.000 E1.08240
G1 X101.407 Y97.591 F12000.000
G1 X101.407 Y99.853 F3600.000 E1.10286
G1 X98.907 Y102.027 F12000.000
G1 X98.907 Y100.683 F3600.000 E1.11503
G1 X96.407 Y101.749 F12000.000
G1 X96.407 Y102.888 F3600.000 E1.12534
G1 X93.907 Y102.955 F12000.000
G1 X93.907 Y101.816 F3600.000 E1.13564
G1 X91.407 Y100.911 F12000.000
G1 X91.407 Y102.167 F3600.000 E1.14700
G1 X88.907 Y100.202 F12000.000
G1 X88.907 Y98.235 F3600.000 E1.16480
G1 F1800.000 E0.16480
G92 E0
G1 Z0.500 F12000.000
G1 X86.407 Y99.358
G1 F1800.000 E1.00000
G1 X86.407 Y101.839 F3600.000 E1.03741
G1 X88.907 Y103.902 E1.08629
G1 X88.907 Y102.468 E1.10793
G1 X91.407 Y103.911 F12000.000
G1 X91.407 Y105.066 F3600.000 E1.12534
G1 X93.907 Y106.209 E1.16680
G1 X93.907 Y104.657 E1.19021
G1 X96.407 Y104.158 F12000.000
G1 X96.407 Y106.089 F3600.000 E1.21934
G1 X98.907 Y104.976 E1.26061
G1 X98.907 Y103.626 E1.28096
G1 X101.407 Y102.033 F12000.000
G1 X101.407 Y103.863 F3600.000 E1.30857
G1 X103.907 Y101.374 E1.36178
G1 X103.907 Y98.385 E1.40686
G1 X103.907 Y91.251 F12000.000
G1 X103.907 Y88.626 F3600.000 E1.44645
G1 X98.907 Y86.270 F12000.000
G1 X98.907 Y84.553 F3600.000 E1.47234
G1 X101.407 Y85.997 E1.51588
G1 X101.407 Y87.714 E1.54177
G1 X93.907 Y85.750 F12000.000
G1 X93.907 Y83.802 F3600.000 E1.57116
G1 X96.407 Y84.064 E1.60907
G1 X96.407 Y85.750 E1.63449
G1 X88.907 Y87.532 F12000.000
G1 X88.907 Y86.098 F3600.000 E1.65612
G1 X91.407 Y84.934 E1.69771
G1 X91.407 Y86.089 E1.71512
G1 X83.907 Y95.174 F12000.000
G1 X83.907 Y94.826 F3600.000 E1.72036
G1 X86.407 Y88.161 E1.82772
G1 X86.407 Y90.642 E1.86512
G1 X93.907 Y95.832 F12000.000
G1 X93.907 Y95.414 F3600.000 E1.87143
G1 X93.907 Y97.884 F12000.000
G1 X93.907 Y96.351 F3600.000 E1.89455
G1 X96.407 Y95.982 F12000.000
G1 X96.407 Y97.603 F3600.000 E1.91899
G1 X96.407 Y95.245 F12000.000
G1 X96.407 Y95.355 F3600.000 E1.92064
G1 X96.407 Y94.497 F12000.000
G1 X96.407 Y94.755 F3600.000 E1.92454
G1 X96.407 Y92.347 F12000.000
G1 X96.407 Y94.194 F3600.000 E1.95238
G1 X93.907 Y93.945 F12000.000
G1 X93.907 Y92.216 F3600.000 E1.97845
G1 X93.907 Y94.078 F12000.000
G1 X93.907 Y93.168 F3600.000 E1.99218
G1 X94.899 Y94.756 F12000.000
G1 X95.000 Y94.736 F1800.000 E1.99374
G1 X95.101 Y94.756 E1.99529
G1 X95.187 Y94.813 E1.99685
G1 X95.244 Y94.899 E1.99840
G1 X95.264 Y95.000 E1.99996
G1 X95.244 Y95.101 E2.00151
G1 X95.187 Y95.187 E2.00307
G1 X95.101 Y95.244 E2.00462
G1 X95.000 Y95.264 E2.00617
G1 X94.899 Y95.244 E2.00773
G1 X94.813 Y95.187 E2.00928
G1 X94.756 Y95.101 E2.01084
G1 X94.736 Y95.000 E2.01239
G1 X94.756 Y94.899 E2.01395
G1 X94.851 Y94.788 E2.01615
