; generated by Slic3r 0.9.7 on 2012-12-07 at 13:00:30

; layer_height = 0.25
; perimeters = 3
; top_solid_layers = 3
; bottom_solid_layers = 3
; fill_density = 0.2
; perimeter_speed = 30
; infill_speed = 60
; travel_speed = 200
; scale = 1
; nozzle_diameter = 0.35
; filament_diameter = 2.85
; extrusion_multiplier = 1
; perimeters extrusion width = 0.39mm
; infill extrusion width = 0.39mm
; first layer extrusion width = 0.39mm

M190 S60 ; wait for bed temperature to be reached
M104 S175 ; set temperature
G28 ; home all axes
M109 S175 ; wait for temperature to be reached
G90 ; use absolute coordinates
G21 ; set units to millimeters
G92 E0
M82 ; use absolute distances for extrusion
G1 F1800.000 E-1.00000
G92 E0
G1 Z0.250 F12000.000
G1 X88.880 Y88.955
G1 F1800.000 E1.00000
G1 X89.140 Y88.695 F900.000 E1.00555
G1 X89.420 Y88.455 E1.01111
G1 X90.010 Y88.005 E1.02230
G1 X90.690 Y87.565 E1.03451
G1 X91.370 Y87.215 E1.04605
G1 X91.880 Y86.995 E1.05442
G1 X92.620 Y86.745 E1.06620
G1 X93.490 Y86.535 E1.07970
G1 X94.500 Y86.415 E1.09504
G1 X95.490 Y86.415 E1.10997
G1 X96.160 Y86.485 E1.12013
G1 X96.500 Y86.535 E1.12531
G1 X97.370 Y86.745 E1.13881
G1 X97.860 Y86.905 E1.14659
G1 X98.620 Y87.215 E1.15897
G1 X99.080 Y87.445 E1.16672
G1 X99.520 Y87.695 E1.17435
G1 X100.280 Y88.225 E1.18833
G1 X100.850 Y88.695 E1.19947
G1 X101.360 Y89.235 E1.21067
G1 X101.900 Y89.885 E1.22342
G1 X102.360 Y90.575 E1.23592
G1 X102.790 Y91.375 E1.24962
G1 X103.020 Y91.935 E1.25875
G1 X103.300 Y92.795 E1.27239
G1 X103.480 Y93.685 E1.28609
G1 X103.570 Y94.565 E1.29943
G1 X103.570 Y95.425 E1.31240
G1 X103.480 Y96.305 E1.32574
G1 X103.300 Y97.195 E1.33943
G1 X103.020 Y98.055 E1.35307
G1 X102.790 Y98.615 E1.36220
G1 X102.360 Y99.415 E1.37590
G1 X101.900 Y100.105 E1.38841
G1 X101.360 Y100.755 E1.40115
G1 X100.850 Y101.295 E1.41235
G1 X100.570 Y101.535 E1.41792
G1 X99.980 Y101.985 E1.42911
G1 X99.730 Y102.155 E1.43367
G1 X98.810 Y102.685 E1.44968
G1 X98.540 Y102.815 E1.45420
G1 X97.900 Y103.085 E1.46467
G1 X97.230 Y103.295 E1.47526
G1 X96.310 Y103.485 E1.48943
G1 X95.440 Y103.575 E1.50262
G1 X94.550 Y103.575 E1.51605
G1 X93.680 Y103.485 E1.52924
G1 X92.760 Y103.295 E1.54340
G1 X92.090 Y103.085 E1.55399
G1 X91.180 Y102.685 E1.56898
G1 X90.260 Y102.155 E1.58500
G1 X89.710 Y101.765 E1.59517
G1 X89.140 Y101.295 E1.60631
G1 X88.630 Y100.755 E1.61751
G1 X88.090 Y100.105 E1.63025
G1 X87.630 Y99.415 E1.64276
G1 X87.200 Y98.615 E1.65646
G1 X86.870 Y97.765 E1.67021
G1 X86.690 Y97.195 E1.67923
G1 X86.620 Y96.905 E1.68373
G1 X86.470 Y96.005 E1.69749
G1 X86.410 Y95.135 E1.71064
G1 X86.440 Y94.285 E1.72347
G1 X86.560 Y93.385 E1.73716
G1 X86.690 Y92.795 E1.74627
G1 X86.870 Y92.225 E1.75529
G1 X87.080 Y91.655 E1.76445
G1 X87.200 Y91.375 E1.76904
G1 X87.480 Y90.835 E1.77821
G1 X87.930 Y90.115 E1.79102
G1 X88.250 Y89.675 E1.79923
G1 X88.842 Y88.998 E1.81278
G1 X88.880 Y88.955 E1.81365
G1 X89.160 Y89.225 F12000.000
G1 X89.670 Y88.745 F900.000 E1.82422
G1 X90.470 Y88.155 E1.83921
G1 X90.880 Y87.895 E1.84653
G1 X91.800 Y87.445 E1.86198
G1 X92.260 Y87.265 E1.86943
G1 X92.720 Y87.115 E1.87672
G1 X93.560 Y86.915 E1.88975
G1 X94.200 Y86.825 E1.89949
G1 X94.840 Y86.795 E1.90916
G1 X95.790 Y86.825 E1.92349
G1 X96.430 Y86.915 E1.93324
G1 X97.270 Y87.115 E1.94626
G1 X97.730 Y87.265 E1.95356
G1 X98.460 Y87.565 E1.96546
G1 X99.110 Y87.895 E1.97645
G1 X99.770 Y88.325 E1.98833
G1 X100.320 Y88.745 E1.99877
G1 X100.580 Y88.985 E2.00411
G1 X100.830 Y89.225 E2.00933
G1 X101.270 Y89.715 E2.01927
G1 X101.750 Y90.335 E2.03109
G1 X102.170 Y91.035 E2.04340
G1 X102.440 Y91.545 E2.05211
G1 X102.660 Y92.075 E2.06076
G1 X102.930 Y92.895 E2.07378
G1 X103.000 Y93.175 E2.07813
G1 X103.060 Y93.455 E2.08245
G1 X103.140 Y94.025 E2.09113
G1 X103.190 Y94.595 E2.09976
G1 X103.190 Y95.395 E2.11183
G1 X103.140 Y95.965 E2.12046
G1 X103.060 Y96.535 E2.12914
G1 X102.930 Y97.095 E2.13781
G1 X102.660 Y97.915 E2.15083
G1 X102.560 Y98.185 E2.15517
G1 X102.310 Y98.705 E2.16387
G1 X101.890 Y99.445 E2.17670
G1 X101.440 Y100.075 E2.18838
G1 X101.070 Y100.505 E2.19694
G1 X100.580 Y101.005 E2.20749
G1 X100.320 Y101.245 E2.21283
G1 X100.050 Y101.455 E2.21799
G1 X99.520 Y101.835 E2.22782
G1 X98.650 Y102.335 E2.24296
G1 X98.070 Y102.605 E2.25261
G1 X97.770 Y102.725 E2.25748
G1 X97.450 Y102.825 E2.26254
G1 X96.520 Y103.055 E2.27698
G1 X95.700 Y103.175 E2.28948
G1 X94.840 Y103.195 E2.30246
G1 X94.290 Y103.175 E2.31076
G1 X94.010 Y103.145 E2.31500
G1 X93.180 Y102.995 E2.32772
G1 X92.220 Y102.725 E2.34276
G1 X91.340 Y102.335 E2.35728
G1 X90.470 Y101.835 E2.37241
G1 X89.670 Y101.245 E2.38741
G1 X89.410 Y101.005 E2.39274
G1 X89.160 Y100.765 E2.39797
G1 X88.720 Y100.275 E2.40790
G1 X88.240 Y99.655 E2.41973
G1 X88.100 Y99.445 E2.42353
G1 X87.680 Y98.705 E2.43637
G1 X87.430 Y98.185 E2.44507
G1 X87.060 Y97.095 E2.46243
G1 X86.930 Y96.535 E2.47110
G1 X86.820 Y95.665 E2.48432
G1 X86.790 Y95.125 E2.49248
G1 X86.820 Y94.325 E2.50455
G1 X86.930 Y93.455 E2.51778
G1 X87.060 Y92.895 E2.52645
G1 X87.430 Y91.805 E2.54381
G1 X87.680 Y91.285 E2.55251
G1 X88.100 Y90.545 E2.56534
G1 X88.550 Y89.915 E2.57702
G1 X89.121 Y89.267 E2.59004
G1 X89.160 Y89.225 E2.59091
G1 X89.430 Y89.495 F12000.000
G1 X90.170 Y88.835 F900.000 E2.60586
G1 X90.880 Y88.355 E2.61879
G1 X91.480 Y88.015 E2.62919
G1 X92.390 Y87.625 E2.64412
G1 X93.050 Y87.425 E2.65452
G1 X93.940 Y87.245 E2.66822
G1 X94.540 Y87.185 E2.67731
G1 X95.450 Y87.185 E2.69104
G1 X96.050 Y87.245 E2.70013
G1 X96.940 Y87.425 E2.71382
G1 X97.600 Y87.625 E2.72422
G1 X98.510 Y88.015 E2.73916
G1 X99.110 Y88.355 E2.74956
G1 X99.820 Y88.835 E2.76248
G1 X100.320 Y89.265 E2.77243
G1 X100.780 Y89.735 E2.78235
G1 X101.290 Y90.345 E2.79434
G1 X101.690 Y90.965 E2.80547
G1 X102.090 Y91.705 E2.81815
G1 X102.300 Y92.205 E2.82633
G1 X102.560 Y92.995 E2.83887
G1 X102.680 Y93.525 E2.84707
G1 X102.800 Y94.615 E2.86361
G1 X102.800 Y95.375 E2.87507
G1 X102.680 Y96.465 E2.89161
G1 X102.560 Y96.995 E2.89980
G1 X102.300 Y97.785 E2.91235
G1 X102.090 Y98.285 E2.92053
G1 X101.690 Y99.025 E2.93321
G1 X101.290 Y99.645 E2.94434
G1 X100.780 Y100.255 E2.95633
G1 X100.320 Y100.725 E2.96625
G1 X99.820 Y101.155 E2.97620
G1 X99.300 Y101.515 E2.98573
G1 X98.480 Y101.985 E2.99999
G1 X98.210 Y102.115 E3.00451
G1 X97.630 Y102.365 E3.01403
G1 X97.040 Y102.545 E3.02334
G1 X96.190 Y102.725 E3.03644
G1 X95.930 Y102.765 E3.04041
G1 X95.410 Y102.805 E3.04827
G1 X94.580 Y102.805 E3.06079
G1 X94.060 Y102.765 E3.06866
G1 X92.950 Y102.545 E3.08572
G1 X92.360 Y102.365 E3.09503
G1 X92.060 Y102.245 E3.09990
G1 X91.510 Y101.985 E3.10907
G1 X90.690 Y101.515 E3.12333
G1 X90.170 Y101.155 E3.13287
G1 X89.670 Y100.725 E3.14281
G1 X89.210 Y100.255 E3.15273
G1 X88.700 Y99.645 E3.16472
G1 X88.300 Y99.025 E3.17585
G1 X87.900 Y98.285 E3.18854
G1 X87.690 Y97.785 E3.19671
G1 X87.430 Y96.995 E3.20926
G1 X87.310 Y96.465 E3.21745
G1 X87.270 Y96.195 E3.22157
G1 X87.210 Y95.635 E3.23006
G1 X87.180 Y95.125 E3.23777
G1 X87.210 Y94.355 E3.24939
G1 X87.310 Y93.525 E3.26200
G1 X87.430 Y92.995 E3.27019
G1 X87.690 Y92.205 E3.28274
G1 X88.020 Y91.465 E3.29496
G1 X88.560 Y90.545 E3.31105
G1 X88.850 Y90.155 E3.31838
G1 X89.391 Y89.537 E3.33076
G1 X89.430 Y89.495 E3.33163
G1 F1800.000 E2.33163
G92 E0
G1 X91.860 Y91.754 F12000.000
G1 F1800.000 E1.00000
G1 X92.100 Y91.538 F900.000 E1.00487
G1 X92.603 Y91.172 E1.01426
G1 X92.883 Y91.010 E1.01913
G1 X93.452 Y90.757 E1.02852
G1 X93.759 Y90.657 E1.03338
G1 X94.368 Y90.528 E1.04278
G1 X94.689 Y90.494 E1.04764
G1 X95.311 Y90.494 E1.05703
G1 X95.632 Y90.528 E1.06190
G1 X96.241 Y90.657 E1.07129
G1 X96.548 Y90.757 E1.07616
G1 X97.117 Y91.010 E1.08555
G1 X97.397 Y91.172 E1.09042
G1 X97.900 Y91.538 E1.09981
G1 X98.140 Y91.754 E1.10468
G1 X98.557 Y92.216 E1.11407
G1 X98.747 Y92.477 E1.11893
G1 X99.058 Y93.017 E1.12833
G1 X99.189 Y93.311 E1.13319
G1 X99.382 Y93.904 E1.14258
G1 X99.449 Y94.219 E1.14745
G1 X99.514 Y94.839 E1.15684
G1 X99.514 Y95.161 E1.16171
G1 X99.449 Y95.781 E1.17110
G1 X99.382 Y96.096 E1.17597
G1 X99.189 Y96.689 E1.18536
G1 X99.058 Y96.983 E1.19023
G1 X98.747 Y97.523 E1.19962
G1 X98.557 Y97.784 E1.20448
G1 X98.140 Y98.246 E1.21388
G1 X97.900 Y98.462 E1.21874
G1 X97.397 Y98.828 E1.22813
G1 X97.117 Y98.990 E1.23300
G1 X96.548 Y99.243 E1.24239
G1 X96.241 Y99.343 E1.24726
G1 X95.632 Y99.472 E1.25665
G1 X95.311 Y99.506 E1.26152
G1 X94.689 Y99.506 E1.27091
G1 X94.368 Y99.472 E1.27578
G1 X93.759 Y99.343 E1.28517
G1 X93.452 Y99.243 E1.29003
G1 X92.883 Y98.990 E1.29943
G1 X92.603 Y98.828 E1.30429
G1 X92.100 Y98.462 E1.31368
G1 X91.860 Y98.246 E1.31855
G1 X91.443 Y97.784 E1.32794
G1 X91.253 Y97.523 E1.33281
G1 X90.942 Y96.983 E1.34220
G1 X90.811 Y96.689 E1.34707
G1 X90.618 Y96.096 E1.35646
G1 X90.551 Y95.781 E1.36133
G1 X90.486 Y95.161 E1.37072
G1 X90.486 Y94.839 E1.37559
G1 X90.551 Y94.219 E1.38498
G1 X90.618 Y93.904 E1.38984
G1 X90.811 Y93.311 E1.39923
G1 X90.942 Y93.017 E1.40410
G1 X91.253 Y92.477 E1.41349
G1 X91.443 Y92.216 E1.41836
G1 X91.821 Y91.796 E1.42688
G1 X91.860 Y91.754 E1.42775
G1 X92.132 Y92.026 F12000.000
G1 X92.342 Y91.837 F900.000 E1.43201
G1 X92.813 Y91.495 E1.44079
G1 X93.058 Y91.354 E1.44505
G1 X93.590 Y91.117 E1.45384
G1 X93.858 Y91.029 E1.45809
G1 X94.428 Y90.908 E1.46688
G1 X94.709 Y90.879 E1.47114
G1 X95.291 Y90.879 E1.47992
G1 X95.572 Y90.908 E1.48418
G1 X96.142 Y91.029 E1.49296
G1 X96.410 Y91.117 E1.49722
G1 X96.942 Y91.354 E1.50600
G1 X97.187 Y91.495 E1.51026
G1 X97.658 Y91.837 E1.51904
G1 X97.868 Y92.026 E1.52330
G1 X98.257 Y92.459 E1.53209
G1 X98.423 Y92.687 E1.53634
G1 X98.715 Y93.192 E1.54513
G1 X98.829 Y93.450 E1.54939
G1 X99.009 Y94.003 E1.55817
G1 X99.068 Y94.280 E1.56243
G1 X99.129 Y94.859 E1.57121
G1 X99.129 Y95.141 E1.57547
G1 X99.068 Y95.720 E1.58425
G1 X99.009 Y95.997 E1.58851
G1 X98.829 Y96.550 E1.59729
G1 X98.715 Y96.808 E1.60155
G1 X98.423 Y97.313 E1.61034
G1 X98.257 Y97.541 E1.61459
G1 X97.868 Y97.974 E1.62338
G1 X97.658 Y98.163 E1.62764
G1 X97.187 Y98.505 E1.63642
G1 X96.942 Y98.646 E1.64068
G1 X96.410 Y98.883 E1.64946
G1 X96.142 Y98.971 E1.65372
G1 X95.572 Y99.092 E1.66250
G1 X95.291 Y99.121 E1.66676
G1 X94.709 Y99.121 E1.67554
G1 X94.428 Y99.092 E1.67980
G1 X93.858 Y98.971 E1.68859
G1 X93.590 Y98.883 E1.69284
G1 X93.058 Y98.646 E1.70163
G1 X92.813 Y98.505 E1.70589
G1 X92.342 Y98.163 E1.71467
G1 X92.132 Y97.974 E1.71893
G1 X91.743 Y97.541 E1.72771
G1 X91.577 Y97.313 E1.73197
G1 X91.285 Y96.808 E1.74075
G1 X91.171 Y96.550 E1.74501
G1 X90.991 Y95.997 E1.75379
G1 X90.932 Y95.720 E1.75805
G1 X90.871 Y95.141 E1.76684
G1 X90.871 Y94.859 E1.77109
G1 X90.932 Y94.280 E1.77988
G1 X90.991 Y94.003 E1.78414
G1 X91.171 Y93.450 E1.79292
G1 X91.285 Y93.192 E1.79718
G1 X91.577 Y92.687 E1.80596
G1 X91.743 Y92.459 E1.81022
G1 X92.094 Y92.069 E1.81813
G1 X92.132 Y92.026 E1.81900
G1 X92.405 Y92.299 F12000.000
G1 X92.585 Y92.137 F900.000 E1.82265
G1 X93.023 Y91.818 E1.83083
G1 X93.233 Y91.697 E1.83448
G1 X93.728 Y91.476 E1.84265
G1 X93.958 Y91.402 E1.84630
G1 X94.488 Y91.289 E1.85448
G1 X94.729 Y91.264 E1.85813
G1 X95.271 Y91.264 E1.86630
G1 X95.512 Y91.289 E1.86995
G1 X96.042 Y91.402 E1.87813
G1 X96.272 Y91.476 E1.88178
G1 X96.767 Y91.697 E1.88995
G1 X96.977 Y91.818 E1.89360
G1 X97.415 Y92.137 E1.90178
G1 X97.595 Y92.299 E1.90543
G1 X97.958 Y92.701 E1.91360
G1 X98.100 Y92.897 E1.91725
G1 X98.371 Y93.367 E1.92543
G1 X98.470 Y93.588 E1.92908
G1 X98.637 Y94.103 E1.93725
G1 X98.687 Y94.340 E1.94090
G1 X98.744 Y94.879 E1.94908
G1 X98.744 Y95.121 E1.95273
G1 X98.687 Y95.660 E1.96090
G1 X98.637 Y95.897 E1.96455
G1 X98.470 Y96.412 E1.97273
G1 X98.371 Y96.633 E1.97638
G1 X98.100 Y97.103 E1.98455
G1 X97.958 Y97.299 E1.98820
G1 X97.595 Y97.701 E1.99638
G1 X97.415 Y97.863 E2.00003
G1 X96.977 Y98.182 E2.00820
G1 X96.767 Y98.303 E2.01185
G1 X96.272 Y98.524 E2.02003
G1 X96.042 Y98.598 E2.02368
G1 X95.512 Y98.711 E2.03185
G1 X95.271 Y98.736 E2.03550
G1 X94.729 Y98.736 E2.04368
G1 X94.488 Y98.711 E2.04733
G1 X93.958 Y98.598 E2.05550
G1 X93.728 Y98.524 E2.05915
G1 X93.233 Y98.303 E2.06733
G1 X93.023 Y98.182 E2.07098
G1 X92.585 Y97.863 E2.07915
G1 X92.405 Y97.701 E2.08280
G1 X92.042 Y97.299 E2.09098
G1 X91.900 Y97.103 E2.09463
G1 X91.629 Y96.633 E2.10280
G1 X91.530 Y96.412 E2.10645
G1 X91.363 Y95.897 E2.11463
G1 X91.313 Y95.660 E2.11828
G1 X91.256 Y95.121 E2.12645
G1 X91.256 Y94.879 E2.13010
G1 X91.313 Y94.340 E2.13828
G1 X91.363 Y94.103 E2.14193
G1 X91.530 Y93.588 E2.15010
G1 X91.629 Y93.367 E2.15375
G1 X91.900 Y92.897 E2.16193
G1 X92.042 Y92.701 E2.16558
G1 X92.366 Y92.341 E2.17288
G1 X92.405 Y92.299 E2.17375
G1 X92.677 Y92.571 F12000.000
G1 X92.827 Y92.436 F900.000 E2.17679
G1 X93.233 Y92.141 E2.18436
G1 X93.408 Y92.040 E2.18740
G1 X93.866 Y91.836 E2.19497
G1 X94.058 Y91.774 E2.19801
G1 X94.549 Y91.670 E2.20558
G1 X94.749 Y91.649 E2.20862
G1 X95.251 Y91.649 E2.21618
G1 X95.451 Y91.670 E2.21923
G1 X95.942 Y91.774 E2.22679
G1 X96.134 Y91.836 E2.22983
G1 X96.592 Y92.040 E2.23740
G1 X96.767 Y92.141 E2.24044
G1 X97.173 Y92.436 E2.24801
G1 X97.323 Y92.571 E2.25105
G1 X97.658 Y92.944 E2.25862
G1 X97.777 Y93.107 E2.26166
G1 X98.028 Y93.542 E2.26923
G1 X98.110 Y93.726 E2.27227
G1 X98.265 Y94.203 E2.27983
G1 X98.307 Y94.400 E2.28288
G1 X98.359 Y94.899 E2.29044
G1 X98.359 Y95.101 E2.29348
G1 X98.307 Y95.600 E2.30105
G1 X98.265 Y95.797 E2.30409
G1 X98.110 Y96.274 E2.31166
G1 X98.028 Y96.458 E2.31470
G1 X97.777 Y96.893 E2.32227
G1 X97.658 Y97.056 E2.32531
G1 X97.323 Y97.429 E2.33288
G1 X97.173 Y97.564 E2.33592
G1 X96.767 Y97.859 E2.34348
G1 X96.592 Y97.960 E2.34653
G1 X96.134 Y98.164 E2.35409
G1 X95.942 Y98.226 E2.35713
G1 X95.451 Y98.330 E2.36470
G1 X95.251 Y98.351 E2.36774
G1 X94.749 Y98.351 E2.37531
G1 X94.549 Y98.330 E2.37835
G1 X94.058 Y98.226 E2.38592
G1 X93.866 Y98.164 E2.38896
G1 X93.408 Y97.960 E2.39652
G1 X93.233 Y97.859 E2.39957
G1 X92.827 Y97.564 E2.40713
G1 X92.677 Y97.429 E2.41017
G1 X92.342 Y97.056 E2.41774
G1 X92.223 Y96.893 E2.42078
G1 X91.972 Y96.458 E2.42835
G1 X91.890 Y96.274 E2.43139
G1 X91.735 Y95.797 E2.43896
G1 X91.693 Y95.600 E2.44200
G1 X91.641 Y95.101 E2.44957
G1 X91.641 Y94.899 E2.45261
G1 X91.693 Y94.400 E2.46017
G1 X91.735 Y94.203 E2.46322
G1 X91.890 Y93.726 E2.47078
G1 X91.972 Y93.542 E2.47382
G1 X92.223 Y93.107 E2.48139
G1 X92.342 Y92.944 E2.48443
G1 X92.639 Y92.614 E2.49113
G1 X92.677 Y92.571 E2.49200
G1 X92.950 Y92.844 F12000.000
G1 X93.070 Y92.736 F900.000 E2.49443
G1 X93.443 Y92.464 E2.50139
G1 X93.583 Y92.384 E2.50382
G1 X94.004 Y92.196 E2.51078
G1 X94.158 Y92.146 E2.51322
G1 X94.609 Y92.050 E2.52017
G1 X94.769 Y92.033 E2.52261
G1 X95.231 Y92.033 E2.52957
G1 X95.391 Y92.050 E2.53200
G1 X95.842 Y92.146 E2.53896
G1 X95.996 Y92.196 E2.54139
G1 X96.417 Y92.384 E2.54835
G1 X96.557 Y92.464 E2.55078
G1 X96.930 Y92.736 E2.55774
G1 X97.050 Y92.844 E2.56017
G1 X97.359 Y93.186 E2.56713
G1 X97.454 Y93.317 E2.56956
G1 X97.684 Y93.716 E2.57652
G1 X97.750 Y93.864 E2.57896
G1 X97.893 Y94.303 E2.58591
G1 X97.926 Y94.460 E2.58835
G1 X97.974 Y94.919 E2.59531
G1 X97.974 Y95.081 E2.59774
G1 X97.926 Y95.540 E2.60470
G1 X97.893 Y95.697 E2.60713
G1 X97.750 Y96.136 E2.61409
G1 X97.684 Y96.284 E2.61652
G1 X97.454 Y96.683 E2.62348
G1 X97.359 Y96.814 E2.62591
G1 X97.050 Y97.156 E2.63287
G1 X96.930 Y97.264 E2.63531
G1 X96.557 Y97.536 E2.64226
G1 X96.417 Y97.616 E2.64470
G1 X95.996 Y97.804 E2.65166
G1 X95.842 Y97.854 E2.65409
G1 X95.391 Y97.950 E2.66105
G1 X95.231 Y97.967 E2.66348
G1 X94.769 Y97.967 E2.67044
G1 X94.609 Y97.950 E2.67287
G1 X94.158 Y97.854 E2.67983
G1 X94.004 Y97.804 E2.68226
G1 X93.583 Y97.616 E2.68922
G1 X93.443 Y97.536 E2.69165
G1 X93.070 Y97.264 E2.69861
G1 X92.950 Y97.156 E2.70105
G1 X92.641 Y96.814 E2.70800
G1 X92.546 Y96.683 E2.71044
G1 X92.316 Y96.284 E2.71740
G1 X92.250 Y96.136 E2.71983
G1 X92.107 Y95.697 E2.72679
G1 X92.074 Y95.540 E2.72922
G1 X92.026 Y95.081 E2.73618
G1 X92.026 Y94.919 E2.73861
G1 X92.074 Y94.460 E2.74557
G1 X92.107 Y94.303 E2.74800
G1 X92.250 Y93.864 E2.75496
G1 X92.316 Y93.716 E2.75740
G1 X92.546 Y93.317 E2.76435
G1 X92.911 Y92.886 E2.77287
G1 X92.950 Y92.844 E2.77374
G1 X93.222 Y93.116 F12000.000
G1 X93.653 Y92.788 F900.000 E2.78190
G1 X94.142 Y92.556 E2.79007
