; generated by Slic3r 0.9.7 on 2012-12-10 at 19:01:52

; layer_height = 0.25
; perimeters = 3
; top_solid_layers = 3
; bottom_solid_layers = 3
; fill_density = 0.2
; perimeter_speed = 30
; infill_speed = 60
; travel_speed = 200
; scale = 1
; nozzle_diameter = 0.35
; filament_diameter = 2.85
; extrusion_multiplier = 1
; perimeters extrusion width = 0.39mm
; infill extrusion width = 0.39mm
; support material extrusion width = 0.39mm
; first layer extrusion width = 0.39mm

M190 S60 ; wait for bed temperature to be reached
M104 S175 ; set temperature
G28 ; home all axes
M109 S175 ; wait for temperature to be reached
G90 ; use absolute coordinates
G21 ; set units to millimeters
G92 E0
M82 ; use absolute distances for extrusion
G1 F1800.000 E-1.00000
G92 E0
G1 Z0.250 F12000.000
G1 X76.640 Y75.280
G1 F1800.000 E1.00000
G1 X77.070 Y74.870 F900.000 E1.00896
G1 X77.540 Y74.490 E1.01808
G1 X80.880 Y72.060 E1.08037
G1 X81.380 Y71.730 E1.08940
G1 X81.910 Y71.440 E1.09852
G1 X86.240 Y69.510 E1.17001
G1 X86.530 Y69.400 E1.17469
G1 X87.390 Y69.160 E1.18816
G1 X91.440 Y68.300 E1.25060
G1 X92.030 Y68.200 E1.25962
G1 X92.630 Y68.150 E1.26870
G1 X97.370 Y68.150 E1.34019
G1 X97.980 Y68.200 E1.34942
G1 X98.280 Y68.250 E1.35401
G1 X102.580 Y69.160 E1.42029
G1 X103.170 Y69.310 E1.42948
G1 X103.460 Y69.400 E1.43406
G1 X104.020 Y69.630 E1.44319
G1 X108.080 Y71.440 E1.51023
G1 X108.610 Y71.730 E1.51934
G1 X109.110 Y72.060 E1.52837
G1 X112.450 Y74.490 E1.59067
G1 X113.140 Y75.070 E1.60426
G1 X113.560 Y75.500 E1.61333
G1 X116.330 Y78.580 E1.67580
G1 X116.710 Y79.030 E1.68468
G1 X117.050 Y79.520 E1.69368
G1 X119.420 Y83.620 E1.76510
G1 X119.550 Y83.890 E1.76962
G1 X119.790 Y84.450 E1.77881
G1 X121.250 Y88.950 E1.85016
G1 X121.390 Y89.530 E1.85915
G1 X121.440 Y89.830 E1.86374
G1 X121.910 Y94.240 E1.93063
G1 X121.950 Y94.850 E1.93985
G1 X121.940 Y95.460 E1.94905
G1 X121.440 Y100.170 E2.02048
G1 X121.390 Y100.460 E2.02492
G1 X121.250 Y101.040 E2.03392
G1 X119.790 Y105.540 E2.10527
G1 X119.420 Y106.370 E2.11897
G1 X117.050 Y110.470 E2.19040
G1 X116.710 Y110.960 E2.19939
G1 X116.330 Y111.410 E2.20827
G1 X113.560 Y114.490 E2.27075
G1 X113.140 Y114.920 E2.27981
G1 X112.450 Y115.500 E2.29341
G1 X109.110 Y117.930 E2.35570
G1 X108.610 Y118.260 E2.36473
G1 X108.080 Y118.550 E2.37385
G1 X103.750 Y120.480 E2.44534
G1 X103.180 Y120.680 E2.45445
G1 X102.600 Y120.830 E2.46349
G1 X98.550 Y121.690 E2.52593
G1 X97.960 Y121.790 E2.53495
G1 X97.360 Y121.840 E2.54404
G1 X92.630 Y121.840 E2.61537
G1 X92.030 Y121.790 E2.62445
G1 X91.440 Y121.690 E2.63348
G1 X87.390 Y120.830 E2.69592
G1 X86.530 Y120.590 E2.70938
G1 X86.240 Y120.480 E2.71406
G1 X81.910 Y118.550 E2.78556
G1 X81.380 Y118.260 E2.79467
G1 X80.880 Y117.930 E2.80371
G1 X77.540 Y115.500 E2.86600
G1 X76.850 Y114.920 E2.87959
G1 X76.430 Y114.490 E2.88866
G1 X73.660 Y111.410 E2.95113
G1 X73.280 Y110.960 E2.96001
G1 X72.940 Y110.470 E2.96901
G1 X70.570 Y106.370 E3.04043
G1 X70.200 Y105.540 E3.05414
G1 X68.740 Y101.040 E3.12549
G1 X68.600 Y100.460 E3.13448
G1 X68.550 Y100.170 E3.13892
G1 X68.050 Y95.460 E3.21036
G1 X68.040 Y94.850 E3.21956
G1 X68.080 Y94.240 E3.22878
G1 X68.550 Y89.830 E3.29566
G1 X68.600 Y89.530 E3.30025
G1 X68.740 Y88.950 E3.30925
G1 X70.200 Y84.450 E3.38060
G1 X70.440 Y83.890 E3.38979
G1 X70.570 Y83.620 E3.39431
G1 X72.940 Y79.520 E3.46573
G1 X73.280 Y79.030 E3.47472
G1 X73.660 Y78.580 E3.48361
G1 X76.600 Y75.321 E3.54979
G1 X76.640 Y75.280 E3.55066
G1 X76.910 Y75.550 F12000.000
G1 X77.110 Y75.350 F900.000 E3.55493
G1 X77.540 Y74.980 E3.56349
G1 X81.340 Y72.210 E3.63441
G1 X81.580 Y72.060 E3.63867
G1 X82.330 Y71.670 E3.65142
G1 X86.120 Y69.980 E3.71401
G1 X86.650 Y69.770 E3.72260
G1 X87.200 Y69.600 E3.73129
G1 X87.470 Y69.540 E3.73546
G1 X91.800 Y68.620 E3.80222
G1 X92.080 Y68.580 E3.80648
G1 X92.360 Y68.550 E3.81073
G1 X92.930 Y68.530 E3.81933
G1 X97.060 Y68.530 E3.88162
G1 X97.640 Y68.560 E3.89038
G1 X98.220 Y68.630 E3.89919
G1 X102.500 Y69.540 E3.96518
G1 X103.060 Y69.680 E3.97389
G1 X103.870 Y69.980 E3.98691
G1 X107.660 Y71.670 E4.04950
G1 X108.410 Y72.060 E4.06225
G1 X108.650 Y72.210 E4.06652
G1 X112.450 Y74.980 E4.13744
G1 X112.880 Y75.350 E4.14599
G1 X113.270 Y75.750 E4.15442
G1 X116.040 Y78.830 E4.21689
G1 X116.230 Y79.050 E4.22128
G1 X116.570 Y79.500 E4.22978
G1 X116.870 Y79.970 E4.23819
G1 X118.940 Y83.550 E4.30056
G1 X119.080 Y83.800 E4.30488
G1 X119.320 Y84.320 E4.31352
G1 X119.520 Y84.850 E4.32206
G1 X120.800 Y88.790 E4.38454
G1 X121.010 Y89.600 E4.39716
G1 X121.060 Y89.880 E4.40145
G1 X121.530 Y94.280 E4.46818
G1 X121.570 Y94.860 E4.47695
G1 X121.560 Y95.430 E4.48555
G1 X121.060 Y100.110 E4.55653
G1 X121.010 Y100.390 E4.56082
G1 X120.800 Y101.200 E4.57344
G1 X119.520 Y105.140 E4.63592
G1 X119.320 Y105.670 E4.64447
G1 X119.080 Y106.190 E4.65310
G1 X118.940 Y106.440 E4.65742
G1 X116.870 Y110.020 E4.71979
G1 X116.570 Y110.490 E4.72820
G1 X116.230 Y110.940 E4.73671
G1 X116.040 Y111.160 E4.74109
G1 X113.270 Y114.240 E4.80357
G1 X112.880 Y114.640 E4.81199
G1 X112.450 Y115.010 E4.82055
G1 X108.650 Y117.780 E4.89147
G1 X108.410 Y117.930 E4.89573
G1 X107.660 Y118.320 E4.90848
G1 X103.870 Y120.010 E4.97107
G1 X103.070 Y120.310 E4.98395
G1 X102.520 Y120.450 E4.99251
G1 X98.190 Y121.370 E5.05927
G1 X97.630 Y121.440 E5.06779
G1 X97.060 Y121.460 E5.07639
G1 X92.930 Y121.460 E5.13867
G1 X92.360 Y121.440 E5.14728
G1 X92.080 Y121.410 E5.15152
G1 X91.800 Y121.370 E5.15579
G1 X87.470 Y120.450 E5.22255
G1 X87.200 Y120.390 E5.22672
G1 X86.650 Y120.220 E5.23540
G1 X86.120 Y120.010 E5.24400
G1 X82.330 Y118.320 E5.30658
G1 X81.580 Y117.930 E5.31933
G1 X81.340 Y117.780 E5.32360
G1 X77.540 Y115.010 E5.39452
G1 X77.110 Y114.640 E5.40308
G1 X76.720 Y114.240 E5.41150
G1 X73.950 Y111.160 E5.47398
G1 X73.760 Y110.940 E5.47836
G1 X73.420 Y110.490 E5.48687
G1 X73.120 Y110.020 E5.49528
G1 X71.050 Y106.440 E5.55764
G1 X70.910 Y106.190 E5.56197
G1 X70.670 Y105.670 E5.57060
G1 X70.470 Y105.140 E5.57915
G1 X69.190 Y101.200 E5.64162
G1 X68.980 Y100.390 E5.65424
G1 X68.930 Y100.110 E5.65853
G1 X68.430 Y95.430 E5.72952
G1 X68.420 Y94.860 E5.73812
G1 X68.460 Y94.280 E5.74688
G1 X68.930 Y89.880 E5.81362
G1 X68.980 Y89.600 E5.81791
G1 X69.190 Y88.790 E5.83053
G1 X70.470 Y84.850 E5.89301
G1 X70.670 Y84.320 E5.90155
G1 X70.910 Y83.800 E5.91019
G1 X71.050 Y83.550 E5.91451
G1 X73.120 Y79.970 E5.97688
G1 X73.420 Y79.500 E5.98529
G1 X73.760 Y79.050 E5.99379
G1 X73.950 Y78.830 E5.99818
G1 X76.870 Y75.591 E6.06394
G1 X76.910 Y75.550 E6.06481
G1 X77.000 Y76.010 F12000.000
G1 X77.570 Y75.450 F900.000 E6.07686
G1 X77.780 Y75.280 E6.08094
G1 X81.550 Y72.530 E6.15131
G1 X82.010 Y72.260 E6.15936
G1 X82.490 Y72.020 E6.16745
G1 X86.530 Y70.220 E6.23415
G1 X87.030 Y70.050 E6.24212
G1 X87.550 Y69.910 E6.25024
G1 X91.600 Y69.050 E6.31268
G1 X91.870 Y69.000 E6.31682
G1 X92.660 Y68.920 E6.32880
G1 X97.330 Y68.920 E6.39923
G1 X97.880 Y68.970 E6.40756
G1 X98.420 Y69.060 E6.41582
G1 X102.430 Y69.910 E6.47764
G1 X102.690 Y69.970 E6.48166
G1 X103.210 Y70.130 E6.48987
G1 X103.710 Y70.330 E6.49799
G1 X107.500 Y72.020 E6.56057
G1 X107.740 Y72.130 E6.56455
G1 X108.210 Y72.390 E6.57265
G1 X108.440 Y72.530 E6.57672
G1 X112.000 Y75.120 E6.64311
G1 X112.420 Y75.450 E6.65117
G1 X112.990 Y76.010 E6.66322
G1 X115.760 Y79.090 E6.72569
G1 X116.100 Y79.500 E6.73372
G1 X116.540 Y80.160 E6.74569
G1 X118.610 Y83.740 E6.80806
G1 X118.860 Y84.220 E6.81622
G1 X118.970 Y84.460 E6.82020
G1 X119.150 Y84.970 E6.82836
G1 X120.430 Y88.910 E6.89083
G1 X120.580 Y89.420 E6.89885
G1 X120.680 Y89.940 E6.90684
G1 X121.150 Y94.320 E6.97327
G1 X121.180 Y94.860 E6.98143
G1 X121.150 Y95.680 E6.99381
G1 X120.710 Y99.790 E7.05615
G1 X120.630 Y100.310 E7.06408
G1 X120.510 Y100.830 E7.07213
G1 X119.150 Y105.020 E7.13857
G1 X118.970 Y105.530 E7.14672
G1 X118.610 Y106.250 E7.15886
G1 X116.540 Y109.830 E7.22123
G1 X116.100 Y110.490 E7.23319
G1 X115.760 Y110.900 E7.24123
G1 X112.990 Y113.980 E7.30370
G1 X112.420 Y114.540 E7.31575
G1 X112.000 Y114.870 E7.32381
G1 X108.440 Y117.460 E7.39020
G1 X107.980 Y117.730 E7.39825
G1 X107.500 Y117.970 E7.40634
G1 X103.710 Y119.660 E7.46893
G1 X103.460 Y119.770 E7.47304
G1 X102.960 Y119.940 E7.48101
G1 X102.440 Y120.080 E7.48913
G1 X98.390 Y120.940 E7.55157
G1 X98.120 Y120.990 E7.55571
G1 X97.590 Y121.050 E7.56376
G1 X97.330 Y121.070 E7.56769
G1 X92.660 Y121.070 E7.63812
G1 X92.400 Y121.050 E7.64205
G1 X91.870 Y120.990 E7.65010
G1 X91.600 Y120.940 E7.65424
G1 X87.550 Y120.080 E7.71668
G1 X86.780 Y119.860 E7.72876
G1 X86.280 Y119.660 E7.73688
G1 X82.490 Y117.970 E7.79947
G1 X82.250 Y117.860 E7.80345
G1 X81.780 Y117.600 E7.81155
G1 X81.550 Y117.460 E7.81561
G1 X77.990 Y114.870 E7.88201
G1 X77.570 Y114.540 E7.89006
G1 X77.000 Y113.980 E7.90211
G1 X74.230 Y110.900 E7.96459
G1 X73.890 Y110.490 E7.97262
G1 X73.450 Y109.830 E7.98458
G1 X71.380 Y106.250 E8.04695
G1 X71.020 Y105.530 E8.05909
G1 X69.560 Y101.080 E8.12972
G1 X69.410 Y100.570 E8.13774
G1 X69.280 Y99.790 E8.14967
G1 X68.840 Y95.680 E8.21201
G1 X68.810 Y95.140 E8.22016
G1 X68.840 Y94.320 E8.23254
G1 X69.310 Y89.940 E8.29897
G1 X69.410 Y89.420 E8.30696
G1 X69.560 Y88.910 E8.31498
G1 X71.020 Y84.460 E8.38561
G1 X71.380 Y83.740 E8.39775
G1 X73.450 Y80.160 E8.46012
G1 X73.890 Y79.500 E8.47208
G1 X74.230 Y79.090 E8.48011
G1 X76.961 Y76.053 E8.54172
G1 X77.000 Y76.010 E8.54259
G1 X82.519 Y95.174 F12000.000
G1 X82.519 Y94.827 F1800.000 E8.54782
G1 X85.019 Y87.378 E8.66631
G1 X85.019 Y102.622 E8.89621
G1 X87.519 Y104.873 E8.94694
G1 X87.519 Y85.127 E9.24474
G1 X90.019 Y83.603 E9.28890
G1 X90.019 Y106.397 E9.63267
G1 X92.519 Y107.210 E9.67232
G1 X92.519 Y82.791 E10.04059
G1 X95.019 Y82.696 E10.07833
G1 X95.019 Y107.595 E10.45384
G1 X97.519 Y107.197 E10.49202
G1 X97.519 Y83.227 E10.85352
G1 X100.019 Y83.758 E10.89207
G1 X100.019 Y106.385 E11.23331
G1 X102.519 Y104.838 E11.27764
G1 X102.519 Y85.162 E11.57439
G1 X105.019 Y87.413 E11.62513
G1 X105.019 Y102.587 E11.85398
G1 F1800.000 E10.85398
G92 E0
G1 X107.609 Y104.161 F12000.000
G1 F1800.000 E1.00000
G1 X105.429 Y106.582 F900.000 E1.04914
G1 X102.793 Y108.497 E1.09828
G1 X99.816 Y109.822 E1.14742
G1 X96.629 Y110.500 E1.19656
G1 X93.371 Y110.500 E1.24569
G1 X90.184 Y109.822 E1.29483
G1 X87.207 Y108.497 E1.34397
G1 X84.571 Y106.582 E1.39311
G1 X82.391 Y104.161 E1.44225
G1 X80.762 Y101.339 E1.49139
G1 X79.755 Y98.240 E1.54053
G1 X79.607 Y96.832 E1.56188
G1 X76.668 Y96.832 E1.60621
G1 X76.668 Y93.168 E1.66147
G1 X79.607 Y93.168 E1.70580
G1 X79.755 Y91.760 E1.72716
G1 X80.762 Y88.661 E1.77630
G1 X82.391 Y85.839 E1.82544
G1 X84.571 Y83.418 E1.87458
G1 X87.207 Y81.503 E1.92372
G1 X90.184 Y80.178 E1.97285
G1 X93.371 Y79.500 E2.02199
G1 X96.629 Y79.500 E2.07113
G1 X99.816 Y80.178 E2.12027
G1 X102.793 Y81.503 E2.16941
G1 X105.429 Y83.418 E2.21855
G1 X107.609 Y85.839 E2.26769
G1 X109.238 Y88.661 E2.31683
G1 X110.245 Y91.760 E2.36596
G1 X110.393 Y93.168 E2.38732
G1 X113.332 Y93.168 E2.43165
G1 X113.332 Y96.832 E2.48691
G1 X110.393 Y96.832 E2.53124
G1 X110.245 Y98.240 E2.55260
G1 X109.238 Y101.339 E2.60174
G1 X107.638 Y104.111 E2.65000
G1 X107.609 Y104.161 E2.65088
G1 X107.296 Y103.933 F12000.000
G1 X105.170 Y106.295 F900.000 E2.69879
G1 X102.599 Y108.162 E2.74671
G1 X99.697 Y109.454 E2.79463
G1 X96.589 Y110.115 E2.84255
G1 X93.411 Y110.115 E2.89047
G1 X90.303 Y109.454 E2.93839
G1 X87.401 Y108.162 E2.98631
G1 X84.830 Y106.295 E3.03423
G1 X82.704 Y103.933 E3.08214
G1 X81.116 Y101.182 E3.13006
G1 X80.134 Y98.160 E3.17798
G1 X79.954 Y96.447 E3.20395
G1 X77.053 Y96.447 E3.24771
G1 X77.053 Y93.553 E3.29136
G1 X79.954 Y93.553 E3.33511
G1 X80.134 Y91.840 E3.36108
G1 X81.116 Y88.818 E3.40900
G1 X82.704 Y86.067 E3.45692
G1 X84.830 Y83.705 E3.50484
G1 X87.401 Y81.838 E3.55276
G1 X90.303 Y80.546 E3.60068
G1 X93.411 Y79.885 E3.64860
G1 X96.589 Y79.885 E3.69651
G1 X99.697 Y80.546 E3.74443
G1 X102.599 Y81.838 E3.79235
G1 X105.170 Y83.705 E3.84027
G1 X107.296 Y86.067 E3.88819
G1 X108.884 Y88.818 E3.93611
G1 X109.866 Y91.840 E3.98403
G1 X110.046 Y93.553 E4.01000
G1 X112.947 Y93.553 E4.05375
G1 X112.947 Y96.447 E4.09740
G1 X110.046 Y96.447 E4.14116
G1 X109.866 Y98.160 E4.16713
G1 X108.884 Y101.182 E4.21505
G1 X107.325 Y103.883 E4.26209
G1 X107.296 Y103.933 E4.26296
G1 X106.962 Y104.126 F12000.000
G1 F1800.000 E3.26296
G92 E0
G1 X113.795 Y97.217 F12000.000
G1 F1800.000 E1.00000
G1 X113.612 Y98.956 F900.000 E1.02637
G1 X112.383 Y102.739 E1.08637
G1 X110.394 Y106.184 E1.14636
G1 X107.732 Y109.140 E1.20635
G1 X104.514 Y111.479 E1.26635
G1 X100.880 Y113.096 E1.32634
G1 X96.989 Y113.924 E1.38633
G1 X93.011 Y113.924 E1.44632
G1 X89.120 Y113.096 E1.50632
G1 X85.486 Y111.479 E1.56631
G1 X82.268 Y109.140 E1.62630
G1 X79.606 Y106.184 E1.68630
G1 X77.617 Y102.739 E1.74629
G1 X76.388 Y98.956 E1.80628
G1 X76.205 Y97.217 E1.83266
G1 X79.261 Y97.217 E1.87874
G1 X79.377 Y98.321 E1.89548
G1 X80.409 Y101.496 E1.94584
G1 X82.078 Y104.388 E1.99620
G1 X84.312 Y106.870 E2.04656
G1 X87.014 Y108.832 E2.09692
G1 X90.064 Y110.190 E2.14728
G1 X93.330 Y110.885 E2.19763
G1 X96.670 Y110.885 E2.24799
G1 X99.936 Y110.190 E2.29835
G1 X102.986 Y108.832 E2.34871
G1 X105.688 Y106.870 E2.39907
G1 X107.922 Y104.388 E2.44943
G1 X109.591 Y101.496 E2.49979
G1 X110.623 Y98.321 E2.55015
G1 X110.739 Y97.217 E2.56689
G1 X113.737 Y97.217 E2.61210
G1 X113.795 Y97.217 E2.61297
G1 F1800.000 E1.61297
G92 E0
G1 X110.394 Y83.816 F12000.000
G1 F1800.000 E1.00000
G1 X112.383 Y87.261 F900.000 E1.05999
G1 X113.612 Y91.044 E1.11999
G1 X113.795 Y92.783 E1.14636
G1 X110.739 Y92.783 E1.19244
G1 X110.623 Y91.679 E1.20919
G1 X109.591 Y88.504 E1.25954
G1 X107.922 Y85.612 E1.30990
G1 X105.688 Y83.130 E1.36026
G1 X102.986 Y81.168 E1.41062
G1 X99.936 Y79.810 E1.46098
G1 X96.670 Y79.115 E1.51134
G1 X93.330 Y79.115 E1.56170
G1 X90.064 Y79.810 E1.61206
G1 X87.014 Y81.168 E1.66241
G1 X84.312 Y83.130 E1.71277
G1 X82.078 Y85.612 E1.76313
G1 X80.409 Y88.504 E1.81349
G1 X79.377 Y91.679 E1.86385
G1 X79.261 Y92.783 E1.88059
G1 X76.205 Y92.783 E1.92668
G1 X76.388 Y91.044 E1.95305
G1 X77.617 Y87.261 E2.01304
G1 X79.606 Y83.816 E2.07304
G1 X82.268 Y80.860 E2.13303
G1 X85.486 Y78.521 E2.19302
G1 X89.120 Y76.904 E2.25301
G1 X93.011 Y76.076 E2.31301
G1 X96.989 Y76.076 E2.37300
G1 X100.880 Y76.904 E2.43299
G1 X104.514 Y78.521 E2.49299
G1 X107.732 Y80.860 E2.55298
G1 X110.355 Y83.773 E2.61210
G1 X110.394 Y83.816 E2.61297
G1 X110.707 Y83.588 F12000.000
G1 X112.736 Y87.103 F900.000 E2.67418
G1 X113.991 Y90.963 E2.73540
G1 X114.415 Y95.000 E2.79661
G1 X113.991 Y99.037 E2.85782
G1 X112.736 Y102.897 E2.91904
G1 X110.707 Y106.412 E2.98025
G1 X107.991 Y109.428 E3.04146
G1 X104.707 Y111.814 E3.10267
G1 X100.999 Y113.465 E3.16389
G1 X97.029 Y114.308 E3.22510
G1 X92.971 Y114.308 E3.28631
G1 X89.001 Y113.465 E3.34753
G1 X85.293 Y111.814 E3.40874
G1 X82.009 Y109.428 E3.46995
G1 X79.293 Y106.412 E3.53116
G1 X77.264 Y102.897 E3.59238
G1 X76.009 Y99.037 E3.65359
G1 X75.585 Y95.000 E3.71480
G1 X76.009 Y90.963 E3.77602
G1 X77.264 Y87.103 E3.83723
G1 X79.293 Y83.588 E3.89844
G1 X82.009 Y80.572 E3.95965
G1 X85.293 Y78.186 E4.02087
G1 X89.001 Y76.535 E4.08208
G1 X92.971 Y75.692 E4.14329
G1 X97.029 Y75.692 E4.20451
G1 X100.999 Y76.535 E4.26572
G1 X104.707 Y78.186 E4.32693
G1 X107.991 Y80.572 E4.38814
G1 X110.668 Y83.545 E4.44849
G1 X110.707 Y83.588 E4.44936
G1 X111.020 Y83.361 F12000.000
G1 X113.090 Y86.946 F900.000 E4.51179
G1 X114.369 Y90.883 E4.57422
G1 X114.802 Y95.000 E4.63666
G1 X114.369 Y99.117 E4.69909
G1 X113.090 Y103.054 E4.76152
G1 X111.020 Y106.639 E4.82396
G1 X108.250 Y109.716 E4.88639
G1 X104.901 Y112.149 E4.94882
G1 X101.119 Y113.833 E5.01125
G1 X97.070 Y114.693 E5.07369
G1 X92.930 Y114.693 E5.13612
G1 X88.881 Y113.833 E5.19855
G1 X85.099 Y112.149 E5.26099
G1 X81.750 Y109.716 E5.32342
G1 X78.980 Y106.639 E5.38585
G1 X76.910 Y103.054 E5.44828
G1 X75.631 Y99.117 E5.51072
G1 X75.198 Y95.000 E5.57315
G1 X75.631 Y90.883 E5.63558
G1 X76.910 Y86.946 E5.69802
G1 X78.980 Y83.361 E5.76045
G1 X81.750 Y80.284 E5.82288
G1 X85.099 Y77.851 E5.88532
G1 X88.881 Y76.167 E5.94775
G1 X92.930 Y75.307 E6.01018
G1 X97.070 Y75.307 E6.07261
G1 X101.119 Y76.167 E6.13505
