; generated by Slic3r 0.9.7 on 2012-12-10 at 17:50:18

; layer_height = 0.25
; perimeters = 3
; top_solid_layers = 3
; bottom_solid_layers = 3
; fill_density = 0.2
; perimeter_speed = 30
; infill_speed = 60
; travel_speed = 200
; scale = 1
; nozzle_diameter = 0.35
; filament_diameter = 2.85
; extrusion_multiplier = 1
; perimeters extrusion width = 0.39mm
; infill extrusion width = 0.39mm
; support material extrusion width = 0.39mm
; first layer extrusion width = 0.39mm

M190 S60 ; wait for bed temperature to be reached
M104 S175 ; set temperature
G28 ; home all axes
M109 S175 ; wait for temperature to be reached
G90 ; use absolute coordinates
G21 ; set units to millimeters
G92 E0
M82 ; use absolute distances for extrusion
G1 F1800.000 E-1.00000
G92 E0
G1 Z0.250 F12000.000
G1 X77.530 Y74.420
G1 F1800.000 E1.00000
G1 X78.010 Y73.970 F900.000 E1.00992
G1 X78.520 Y73.570 E1.01970
G1 X81.020 Y71.790 E1.06598
G1 X81.540 Y71.450 E1.07535
G1 X82.370 Y71.030 E1.08938
G1 X82.960 Y70.820 E1.09883
G1 X90.780 Y68.280 E1.22283
G1 X91.450 Y68.130 E1.23318
G1 X92.130 Y68.050 E1.24351
G1 X94.970 Y67.960 E1.28636
G1 X95.710 Y67.980 E1.29753
G1 X98.210 Y68.170 E1.33534
G1 X98.890 Y68.250 E1.34567
G1 X99.880 Y68.490 E1.36103
G1 X104.880 Y70.110 E1.44030
G1 X107.730 Y71.200 E1.48632
G1 X108.330 Y71.460 E1.49618
G1 X108.620 Y71.610 E1.50110
G1 X108.910 Y71.780 E1.50617
G1 X109.450 Y72.150 E1.51604
G1 X109.960 Y72.560 E1.52591
G1 X115.200 Y77.290 E1.63238
G1 X115.430 Y77.530 E1.63739
G1 X115.860 Y78.040 E1.64745
G1 X116.230 Y78.580 E1.65732
G1 X119.050 Y83.580 E1.74390
G1 X119.180 Y83.850 E1.74842
G1 X119.410 Y84.420 E1.75769
G1 X119.590 Y85.010 E1.76699
G1 X119.770 Y85.910 E1.78083
G1 X119.820 Y86.510 E1.78991
G1 X119.820 Y103.480 E2.04585
G1 X119.770 Y104.080 E2.05493
G1 X119.720 Y104.390 E2.05966
G1 X119.510 Y105.280 E2.07345
G1 X119.300 Y105.850 E2.08261
G1 X119.050 Y106.410 E2.09186
G1 X116.230 Y111.410 E2.17844
G1 X115.860 Y111.950 E2.18831
G1 X115.430 Y112.460 E2.19837
G1 X114.960 Y112.930 E2.20839
G1 X109.960 Y117.430 E2.30985
G1 X109.450 Y117.840 E2.31971
G1 X108.910 Y118.210 E2.32959
G1 X108.620 Y118.380 E2.33466
G1 X108.330 Y118.530 E2.33958
G1 X107.730 Y118.790 E2.34944
G1 X104.890 Y119.870 E2.39527
G1 X99.560 Y121.600 E2.47978
G1 X98.890 Y121.750 E2.49013
G1 X98.210 Y121.830 E2.50046
G1 X95.710 Y122.020 E2.53827
G1 X94.940 Y122.040 E2.54989
G1 X92.440 Y121.960 E2.58761
G1 X91.770 Y121.910 E2.59775
G1 X91.110 Y121.790 E2.60786
G1 X90.460 Y121.620 E2.61800
G1 X82.960 Y119.190 E2.73690
G1 X82.080 Y118.830 E2.75124
G1 X81.520 Y118.530 E2.76082
G1 X80.990 Y118.190 E2.77031
G1 X78.240 Y116.200 E2.82151
G1 X77.530 Y115.560 E2.83592
G1 X74.820 Y112.510 E2.89746
G1 X74.380 Y111.970 E2.90796
G1 X71.880 Y108.530 E2.97210
G1 X71.530 Y107.990 E2.98180
G1 X71.220 Y107.420 E2.99159
G1 X70.970 Y106.820 E3.00139
G1 X70.770 Y106.210 E3.01107
G1 X68.270 Y97.060 E3.15413
G1 X68.130 Y96.440 E3.16371
G1 X68.040 Y95.810 E3.17331
G1 X68.020 Y95.490 E3.17815
G1 X68.020 Y94.500 E3.19308
G1 X68.040 Y94.180 E3.19791
G1 X68.190 Y93.240 E3.21227
G1 X70.770 Y83.790 E3.36000
G1 X70.970 Y83.180 E3.36969
G1 X71.220 Y82.590 E3.37935
G1 X71.360 Y82.300 E3.38421
G1 X71.690 Y81.750 E3.39388
G1 X74.380 Y78.030 E3.46312
G1 X74.810 Y77.490 E3.47353
G1 X77.491 Y74.462 E3.53451
G1 X77.530 Y74.420 E3.53538
G1 X77.810 Y74.690 F12000.000
G1 X78.260 Y74.270 F900.000 E3.54467
G1 X78.740 Y73.890 E3.55390
G1 X81.530 Y71.910 E3.60550
G1 X82.120 Y71.570 E3.61577
G1 X82.430 Y71.430 E3.62090
G1 X83.080 Y71.180 E3.63140
G1 X90.580 Y68.740 E3.75035
G1 X91.200 Y68.570 E3.76004
G1 X91.840 Y68.460 E3.76984
G1 X92.160 Y68.430 E3.77469
G1 X94.980 Y68.340 E3.81724
G1 X95.680 Y68.360 E3.82780
G1 X98.180 Y68.550 E3.86561
G1 X98.500 Y68.580 E3.87046
G1 X99.140 Y68.690 E3.88025
G1 X99.760 Y68.860 E3.88995
G1 X104.760 Y70.480 E3.96921
G1 X107.600 Y71.560 E4.01504
G1 X108.440 Y71.950 E4.02901
G1 X108.970 Y72.280 E4.03842
G1 X109.700 Y72.850 E4.05239
G1 X114.930 Y77.560 E4.15854
G1 X115.150 Y77.790 E4.16334
G1 X115.550 Y78.270 E4.17276
G1 X115.910 Y78.790 E4.18230
G1 X118.710 Y83.750 E4.26820
G1 X118.950 Y84.280 E4.27698
G1 X119.050 Y84.550 E4.28132
G1 X119.290 Y85.380 E4.29435
G1 X119.380 Y85.950 E4.30305
G1 X119.440 Y86.820 E4.31620
G1 X119.440 Y103.170 E4.56279
G1 X119.410 Y103.750 E4.57155
G1 X119.340 Y104.320 E4.58021
G1 X119.290 Y104.610 E4.58465
G1 X119.140 Y105.170 E4.59339
G1 X118.950 Y105.710 E4.60202
G1 X118.710 Y106.240 E4.61080
G1 X115.910 Y111.200 E4.69670
G1 X115.550 Y111.720 E4.70624
G1 X115.150 Y112.200 E4.71566
G1 X114.700 Y112.640 E4.72515
G1 X109.700 Y117.140 E4.82660
G1 X108.970 Y117.710 E4.84057
G1 X108.440 Y118.040 E4.84999
G1 X107.600 Y118.430 E4.86395
G1 X104.770 Y119.510 E4.90964
G1 X99.770 Y121.140 E4.98895
G1 X99.140 Y121.310 E4.99879
G1 X98.510 Y121.420 E5.00844
G1 X98.180 Y121.450 E5.01343
G1 X95.680 Y121.640 E5.05125
G1 X94.950 Y121.660 E5.06226
G1 X92.450 Y121.580 E5.09998
G1 X91.820 Y121.530 E5.10951
G1 X91.200 Y121.420 E5.11901
G1 X90.580 Y121.250 E5.12871
G1 X83.080 Y118.820 E5.24761
G1 X82.250 Y118.490 E5.26108
G1 X81.720 Y118.200 E5.27019
G1 X81.210 Y117.870 E5.27935
G1 X78.710 Y116.070 E5.32581
G1 X78.240 Y115.700 E5.33483
G1 X77.810 Y115.290 E5.34379
G1 X75.100 Y112.250 E5.40521
G1 X74.690 Y111.740 E5.41508
G1 X72.190 Y108.300 E5.47922
G1 X71.860 Y107.790 E5.48838
G1 X71.570 Y107.250 E5.49762
G1 X71.330 Y106.690 E5.50681
G1 X71.140 Y106.100 E5.51616
G1 X68.640 Y96.950 E5.65921
G1 X68.550 Y96.600 E5.66466
G1 X68.440 Y95.890 E5.67550
G1 X68.400 Y95.170 E5.68637
G1 X68.410 Y94.460 E5.69708
G1 X68.440 Y94.100 E5.70253
G1 X68.550 Y93.390 E5.71337
G1 X68.640 Y93.030 E5.71896
G1 X71.140 Y83.890 E5.86187
G1 X71.440 Y83.030 E5.87561
G1 X71.700 Y82.480 E5.88478
G1 X71.850 Y82.220 E5.88931
G1 X72.190 Y81.710 E5.89856
G1 X74.690 Y78.260 E5.96281
G1 X75.100 Y77.750 E5.97268
G1 X77.771 Y74.732 E6.03346
G1 X77.810 Y74.690 E6.03433
G1 X78.080 Y74.960 F12000.000
G1 X78.290 Y74.750 F900.000 E6.03881
G1 X78.730 Y74.370 E6.04757
G1 X81.470 Y72.420 E6.09829
G1 X82.010 Y72.070 E6.10800
G1 X82.590 Y71.780 E6.11778
G1 X83.190 Y71.550 E6.12747
G1 X90.690 Y69.110 E6.24642
G1 X91.280 Y68.950 E6.25564
G1 X91.880 Y68.840 E6.26484
G1 X92.190 Y68.810 E6.26953
G1 X94.990 Y68.730 E6.31178
G1 X95.650 Y68.740 E6.32173
G1 X98.150 Y68.930 E6.35955
G1 X98.760 Y69.010 E6.36883
G1 X99.350 Y69.140 E6.37794
G1 X104.640 Y70.850 E6.46178
G1 X107.460 Y71.920 E6.50727
G1 X107.990 Y72.150 E6.51598
G1 X108.250 Y72.290 E6.52044
G1 X108.750 Y72.590 E6.52923
G1 X108.990 Y72.760 E6.53367
G1 X109.440 Y73.130 E6.54245
G1 X114.660 Y77.840 E6.64849
G1 X115.060 Y78.270 E6.65735
G1 X115.420 Y78.740 E6.66628
G1 X115.580 Y78.990 E6.67075
G1 X118.370 Y83.950 E6.75658
G1 X118.620 Y84.490 E6.76555
G1 X118.810 Y85.060 E6.77462
G1 X118.990 Y85.930 E6.78801
G1 X119.050 Y86.520 E6.79696
G1 X119.050 Y103.470 E7.05259
G1 X118.990 Y104.060 E7.06153
G1 X118.880 Y104.640 E7.07044
G1 X118.720 Y105.220 E7.07951
G1 X118.620 Y105.500 E7.08400
G1 X118.370 Y106.040 E7.09297
G1 X115.580 Y111.000 E7.17880
G1 X115.420 Y111.250 E7.18327
G1 X115.060 Y111.720 E7.19220
G1 X114.660 Y112.150 E7.20106
G1 X109.440 Y116.860 E7.30710
G1 X109.220 Y117.050 E7.31148
G1 X108.750 Y117.400 E7.32032
G1 X108.250 Y117.700 E7.32911
G1 X107.990 Y117.840 E7.33356
G1 X107.460 Y118.070 E7.34228
G1 X104.650 Y119.140 E7.38763
G1 X99.360 Y120.860 E7.47152
G1 X98.760 Y120.990 E7.48078
G1 X98.150 Y121.070 E7.49006
G1 X95.650 Y121.260 E7.52787
G1 X94.970 Y121.270 E7.53813
G1 X92.170 Y121.170 E7.58038
G1 X91.570 Y121.100 E7.58949
G1 X90.990 Y120.970 E7.59846
G1 X83.200 Y118.450 E7.72193
G1 X82.580 Y118.220 E7.73191
G1 X81.990 Y117.920 E7.74189
G1 X81.440 Y117.560 E7.75180
G1 X78.710 Y115.590 E7.80258
G1 X78.080 Y115.020 E7.81539
G1 X75.390 Y112.000 E7.87639
G1 X75.010 Y111.510 E7.88574
G1 X72.340 Y107.840 E7.95418
G1 X72.040 Y107.340 E7.96298
G1 X71.910 Y107.080 E7.96736
G1 X71.690 Y106.550 E7.97602
G1 X71.510 Y106.000 E7.98474
G1 X69.010 Y96.850 E8.12780
G1 X68.870 Y96.190 E8.13797
G1 X68.790 Y95.510 E8.14830
G1 X68.790 Y94.480 E8.16383
G1 X68.820 Y94.140 E8.16898
G1 X68.930 Y93.470 E8.17922
G1 X69.010 Y93.140 E8.18434
G1 X71.510 Y84.000 E8.32725
G1 X71.590 Y83.720 E8.33164
G1 X71.790 Y83.180 E8.34033
G1 X72.180 Y82.410 E8.35335
G1 X72.500 Y81.930 E8.36205
G1 X75.000 Y78.480 E8.42630
G1 X75.380 Y78.000 E8.43554
G1 X78.040 Y75.001 E8.49599
G1 X78.080 Y74.960 E8.49686
G1 F1800.000 E7.49686
G92 E0
G1 X75.608 Y80.801 F12000.000
G1 F1800.000 E1.00000
G1 X77.120 Y81.004 F900.000 E1.02302
G1 X77.292 Y80.550 E1.03034
G1 X81.966 Y75.250 E1.13691
G1 X82.612 Y75.494 E1.14733
G1 X83.070 Y74.864 E1.15909
G1 X93.408 Y71.505 E1.32302
G1 X93.795 Y71.786 E1.33023
G1 X93.873 Y71.714 E1.33183
G1 X99.311 Y72.143 E1.41410
G1 X99.634 Y72.493 E1.42129
G1 X104.769 Y74.162 E1.50271
G1 X105.547 Y73.815 E1.51556
G1 X110.414 Y78.197 E1.61432
G1 X110.469 Y78.321 E1.61637
G1 X111.490 Y78.053 E1.63230
G1 X115.745 Y85.610 E1.76310
G1 X115.946 Y86.378 E1.77506
G1 X115.946 Y106.420 E2.07733
G1 X114.143 Y108.224 E2.11580
G1 X113.446 Y108.224 E2.12631
G1 X113.446 Y108.357 E2.12831
G1 X112.914 Y109.552 E2.14804
G1 X108.047 Y113.934 E2.24681
G1 X107.971 Y113.900 E2.24807
G1 X107.363 Y114.784 E2.26425
G1 X102.064 Y116.817 E2.34985
G1 X101.965 Y116.749 E2.35166
G1 X96.932 Y118.385 E2.43146
G1 X96.629 Y118.164 E2.43712
G1 X96.567 Y118.224 E2.43842
G1 X91.123 Y118.036 E2.52057
G1 X90.728 Y117.626 E2.52915
G1 X85.762 Y116.022 E2.60785
G1 X85.101 Y116.362 E2.61907
G1 X80.074 Y112.756 E2.71236
G1 X79.609 Y111.851 E2.72770
G1 X79.191 Y111.987 E2.73433
G1 X74.696 Y105.799 E2.84968
G1 X74.394 Y104.872 E2.86439
G1 X74.394 Y100.224 E2.93449
G1 X73.698 Y100.224 E2.94499
G1 X71.894 Y98.421 E2.98346
G1 X71.894 Y94.594 E3.04117
G1 X71.949 Y94.186 E3.04737
G1 X75.592 Y80.857 E3.25578
G1 X75.608 Y80.801 E3.25665
G1 F1800.000 E2.25665
G92 E0
G1 X108.446 Y98.882 F12000.000
G1 F1800.000 E1.00000
G1 X109.394 Y98.882 F900.000 E1.01430
G1 X109.394 Y100.592 E1.04009
G1 X108.698 Y100.592 E1.05060
G1 X108.446 Y100.844 E1.05596
G1 X108.446 Y98.939 E1.08468
G1 X108.446 Y98.882 E1.08555
G1 F1800.000 E0.08555
G92 E0
G1 X108.446 Y91.118 F12000.000
G1 F1800.000 E1.00000
G1 X108.446 Y88.526 F900.000 E1.03910
G1 X108.698 Y88.777 E1.04447
G1 X109.394 Y88.777 E1.05497
G1 X109.394 Y91.118 E1.09028
G1 X108.504 Y91.118 E1.10370
G1 X108.446 Y91.118 E1.10458
G1 F1800.000 E0.10458
G92 E0
G1 X115.561 Y86.428 F12000.000
G1 F1800.000 E1.00000
G1 X115.561 Y106.261 F900.000 E1.29912
G1 X113.983 Y107.839 E1.33278
G1 X113.061 Y107.839 E1.34668
G1 X113.061 Y108.275 E1.35325
G1 X112.595 Y109.321 E1.37052
G1 X107.975 Y113.481 E1.46428
G1 X107.835 Y113.418 E1.46661
G1 X107.113 Y114.467 E1.48581
G1 X102.115 Y116.385 E1.56655
G1 X102.027 Y116.325 E1.56817
G1 X97.000 Y117.958 E1.64788
G1 X96.594 Y117.663 E1.65545
G1 X96.417 Y117.833 E1.65916
G1 X91.292 Y117.657 E1.73650
G1 X90.882 Y117.232 E1.74540
G1 X90.844 Y117.260 E1.74611
G1 X85.811 Y115.633 E1.82588
G1 X85.774 Y115.583 E1.82681
G1 X85.134 Y115.912 E1.83767
G1 X80.374 Y112.498 E1.92601
G1 X79.802 Y111.384 E1.94489
G1 X79.338 Y111.535 E1.95225
G1 X75.043 Y105.623 E2.06246
G1 X74.779 Y104.811 E2.07533
G1 X74.779 Y99.839 E2.15031
G1 X73.857 Y99.839 E2.16422
G1 X72.279 Y98.261 E2.19787
G1 X72.279 Y94.620 E2.25279
G1 X72.327 Y94.263 E2.25822
G1 X75.890 Y81.227 E2.46204
G1 X77.372 Y81.426 E2.48459
G1 X77.627 Y80.752 E2.49546
G1 X82.078 Y75.704 E2.59696
G1 X82.751 Y75.958 E2.60780
G1 X83.308 Y75.191 E2.62210
G1 X93.340 Y71.931 E2.78119
G1 X93.824 Y72.283 E2.79020
G1 X94.010 Y72.111 E2.79403
G1 X99.130 Y72.515 E2.87149
G1 X99.467 Y72.879 E2.87896
G1 X99.500 Y72.854 E2.87958
G1 X104.532 Y74.489 E2.95938
G1 X104.641 Y74.640 E2.96218
G1 X105.476 Y74.268 E2.97595
G1 X110.096 Y78.428 E3.06971
G1 X110.250 Y78.776 E3.07545
G1 X111.301 Y78.500 E3.09183
G1 X115.385 Y85.756 E3.21740
G1 X115.547 Y86.372 E3.22701
G1 X115.561 Y86.428 E3.22788
G1 F1800.000 E2.22788
G92 E0
G1 X82.279 Y102.370 F12000.000
G1 F1800.000 E1.00000
G1 X82.279 Y102.710 F900.000 E1.00512
G1 X81.939 Y102.370 E1.01237
G1 X82.221 Y102.370 E1.01662
G1 X82.279 Y102.370 E1.01749
G1 X80.901 Y101.914 F12000.000
G1 X80.561 Y101.914 F900.000 E1.02262
G1 X80.561 Y101.574 E1.02774
G1 X80.860 Y101.873 E1.03412
G1 X80.901 Y101.914 E1.03499
G1 F1800.000 E0.03499
G92 E0
G1 X108.061 Y101.773 F12000.000
G1 F1800.000 E1.00000
G1 X108.061 Y98.497 F900.000 E1.04941
G1 X109.779 Y98.497 E1.07531
G1 X109.779 Y100.977 E1.11272
G1 X108.857 Y100.977 E1.12662
G1 X108.102 Y101.732 E1.14272
G1 X108.061 Y101.773 E1.14359
G1 F1800.000 E0.14359
G92 E0
G1 X108.061 Y91.503 F12000.000
G1 F1800.000 E1.00000
G1 X108.061 Y87.597 F900.000 E1.05892
G1 X108.857 Y88.393 E1.07589
G1 X109.779 Y88.393 E1.08980
G1 X109.779 Y91.503 E1.13671
G1 X108.119 Y91.503 E1.16175
G1 X108.061 Y91.503 E1.16262
G1 F1800.000 E0.16262
G92 E0
G1 X79.779 Y91.503 F12000.000
G1 F1800.000 E1.00000
G1 X79.518 Y91.503 F900.000 E1.00394
G1 X79.779 Y91.242 E1.00950
G1 X79.779 Y91.446 E1.01257
G1 X79.779 Y91.503 E1.01344
G1 F1800.000 E0.01344
G92 E0
G1 X72.705 Y94.340 F12000.000
G1 F1800.000 E1.00000
G1 X76.173 Y81.653 F900.000 E1.19835
G1 X77.664 Y81.853 E1.22105
G1 X77.664 Y81.743 E1.22272
G1 X77.962 Y80.953 E1.23544
G1 X82.191 Y76.158 E1.33186
G1 X82.889 Y76.422 E1.34312
G1 X83.546 Y75.519 E1.35997
G1 X88.273 Y73.983 E1.43493
G1 X88.409 Y74.082 E1.43747
G1 X88.546 Y73.894 E1.44098
G1 X93.273 Y72.358 E1.51593
G1 X93.853 Y72.780 E1.52675
G1 X94.148 Y72.508 E1.53280
G1 X98.950 Y72.887 E1.60545
G1 X99.416 Y73.391 E1.61581
G1 X99.568 Y73.281 E1.61863
G1 X104.294 Y74.817 E1.69359
G1 X104.513 Y75.118 E1.69920
G1 X105.404 Y74.721 E1.71390
G1 X109.777 Y78.659 E1.80266
G1 X110.032 Y79.231 E1.81210
G1 X111.111 Y78.948 E1.82893
G1 X115.026 Y85.902 E1.94927
G1 X115.176 Y86.477 E1.95825
G1 X115.176 Y106.102 E2.25422
G1 X113.824 Y107.454 E2.28307
G1 X112.676 Y107.454 E2.30037
G1 X112.676 Y108.193 E2.31151
G1 X112.277 Y109.090 E2.32632
G1 X107.904 Y113.028 E2.41507
G1 X107.676 Y112.926 E2.41882
G1 X107.676 Y112.969 E2.41947
G1 X106.864 Y114.151 E2.44110
G1 X102.166 Y115.954 E2.51699
G1 X101.939 Y115.797 E2.52115
G1 X101.794 Y115.995 E2.52485
G1 X97.068 Y117.531 E2.59980
G1 X96.559 Y117.162 E2.60929
G1 X96.267 Y117.443 E2.61541
G1 X91.461 Y117.277 E2.68793
G1 X90.926 Y116.724 E2.69954
G1 X90.776 Y116.833 E2.70234
G1 X86.048 Y115.306 E2.77727
G1 X85.892 Y115.091 E2.78129
G1 X85.168 Y115.462 E2.79356
G1 X80.674 Y112.239 E2.87696
G1 X80.164 Y111.246 E2.89380
G1 X80.164 Y110.862 E2.89959
G1 X79.485 Y111.082 E2.91035
G1 X75.390 Y105.446 E3.01543
G1 X75.164 Y104.750 E3.02647
G1 X75.164 Y99.455 E3.10633
G1 X74.017 Y99.455 E3.12363
G1 X72.664 Y98.102 E3.15248
G1 X72.664 Y94.646 E3.20461
G1 X72.697 Y94.397 E3.20839
G1 X72.705 Y94.340 E3.20926
G1 F1800.000 E2.20926
G92 E0
G1 X80.176 Y100.645 F12000.000
G1 F1800.000 E1.00000
G1 X81.517 Y101.985 F900.000 E1.02858
G1 X82.664 Y101.985 E1.04589
G1 X82.664 Y103.639 E1.07083
G1 X81.324 Y102.299 E1.09941
G1 X80.176 Y102.299 E1.11671
G1 X80.176 Y100.703 E1.14078
G1 X80.176 Y100.645 E1.14165
G1 F1800.000 E0.14165
G92 E0
G1 X107.676 Y102.702 F12000.000
G1 F1800.000 E1.00000
G1 X107.676 Y97.798 F900.000 E1.07396
G1 X107.991 Y98.112 E1.08066
G1 X110.164 Y98.112 E1.11344
G1 X110.164 Y101.362 E1.16245
G1 X109.017 Y101.362 E1.17976
G1 X107.717 Y102.661 E1.20747
G1 X107.676 Y102.702 E1.20834
G1 F1800.000 E0.20834
G92 E0
G1 X80.164 Y98.690 F12000.000
G1 F1800.000 E1.00000
G1 X79.586 Y98.112 F900.000 E1.01233
G1 X80.164 Y98.112 E1.02104
G1 X80.164 Y98.632 E1.02889
G1 X80.164 Y98.690 E1.02976
G1 F1800.000 E0.02976
G92 E0
G1 X107.676 Y92.202 F12000.000
G1 F1800.000 E1.00000
G1 X107.676 Y86.668 F900.000 E1.08347
G1 X109.017 Y88.008 E1.11206
G1 X110.164 Y88.008 E1.12936
G1 X110.164 Y91.888 E1.18788
G1 X107.991 Y91.888 E1.22066
G1 X107.717 Y92.162 E1.22649
G1 X107.676 Y92.202 E1.22736
G1 F1800.000 E0.22736
G92 E0
G1 X80.164 Y91.888 F12000.000
G1 F1800.000 E1.00000
G1 X78.572 Y91.888 F900.000 E1.02402
G1 X78.636 Y91.653 E1.02769
G1 X78.824 Y91.653 E1.03053
G1 X80.164 Y90.313 E1.05911
