; generated by Slic3r 0.9.7 on 2012-12-07 at 13:20:44

; layer_height = 0.25
; perimeters = 3
; top_solid_layers = 3
; bottom_solid_layers = 3
; fill_density = 0.2
; perimeter_speed = 30
; infill_speed = 60
; travel_speed = 200
; scale = 1
; nozzle_diameter = 0.35
; filament_diameter = 2.85
; extrusion_multiplier = 1
; perimeters extrusion width = 0.39mm
; infill extrusion width = 0.39mm
; first layer extrusion width = 0.39mm

M190 S60 ; wait for bed temperature to be reached
M104 S175 ; set temperature
G28 ; home all axes
M109 S175 ; wait for temperature to be reached
G90 ; use absolute coordinates
G21 ; set units to millimeters
G92 E0
M82 ; use absolute distances for extrusion
G1 F1800.000 E-1.00000
G92 E0
G1 Z0.250 F12000.000
G1 X70.530 Y69.560
G1 F1800.000 E1.00000
G1 X71.210 Y69.000 F900.000 E1.01329
G1 X72.860 Y67.790 E1.04414
G1 X73.350 Y67.460 E1.05305
G1 X73.860 Y67.170 E1.06190
G1 X76.090 Y66.180 E1.09870
G1 X76.630 Y65.970 E1.10744
G1 X77.180 Y65.800 E1.11612
G1 X79.760 Y65.250 E1.15590
G1 X80.060 Y65.200 E1.16049
G1 X80.670 Y65.150 E1.16972
G1 X109.320 Y65.150 E1.60181
G1 X109.930 Y65.200 E1.61104
G1 X110.230 Y65.250 E1.61563
G1 X112.810 Y65.800 E1.65541
G1 X113.090 Y65.880 E1.65980
G1 X113.910 Y66.180 E1.67297
G1 X115.790 Y67.010 E1.70396
G1 X116.350 Y67.290 E1.71341
G1 X116.880 Y67.610 E1.72274
G1 X117.130 Y67.790 E1.72739
G1 X118.780 Y69.000 E1.75825
G1 X119.460 Y69.560 E1.77153
G1 X119.860 Y69.980 E1.78028
G1 X121.430 Y71.720 E1.81563
G1 X121.790 Y72.190 E1.82456
G1 X122.100 Y72.690 E1.83343
G1 X123.130 Y74.460 E1.86431
G1 X123.420 Y75.000 E1.87356
G1 X123.660 Y75.570 E1.88289
G1 X124.390 Y77.810 E1.91842
G1 X124.550 Y78.380 E1.92735
G1 X124.660 Y78.950 E1.93610
G1 X124.940 Y81.590 E1.97614
G1 X124.950 Y82.200 E1.98534
G1 X124.910 Y82.820 E1.99471
G1 X124.660 Y85.150 E2.03005
G1 X124.610 Y85.440 E2.03449
G1 X124.390 Y86.290 E2.04773
G1 X123.760 Y88.240 E2.07864
G1 X123.660 Y88.530 E2.08326
G1 X123.420 Y89.100 E2.09259
G1 X123.280 Y89.370 E2.09718
G1 X122.100 Y91.410 E2.13272
G1 X121.790 Y91.910 E2.14159
G1 X121.430 Y92.380 E2.15052
G1 X119.600 Y94.400 E2.19163
G1 X93.600 Y120.290 E2.74500
G1 X92.780 Y120.990 E2.76126
G1 X90.880 Y122.380 E2.79676
G1 X90.350 Y122.700 E2.80610
G1 X89.790 Y122.980 E2.81554
G1 X87.910 Y123.810 E2.84654
G1 X87.370 Y124.020 E2.85528
G1 X86.810 Y124.190 E2.86410
G1 X84.230 Y124.740 E2.90389
G1 X83.930 Y124.790 E2.90847
G1 X83.320 Y124.840 E2.91770
G1 X80.670 Y124.840 E2.95767
G1 X80.060 Y124.790 E2.96690
G1 X79.470 Y124.680 E2.97595
G1 X77.180 Y124.190 E3.01127
G1 X76.630 Y124.020 E3.01995
G1 X76.090 Y123.810 E3.02869
G1 X73.860 Y122.820 E3.06549
G1 X73.350 Y122.530 E3.07434
G1 X72.860 Y122.200 E3.08325
G1 X71.210 Y120.990 E3.11411
G1 X70.530 Y120.430 E3.12739
G1 X70.130 Y120.010 E3.13614
G1 X68.560 Y118.270 E3.17148
G1 X68.200 Y117.800 E3.18041
G1 X68.040 Y117.550 E3.18489
G1 X66.710 Y115.260 E3.22483
G1 X66.570 Y114.990 E3.22941
G1 X66.330 Y114.420 E3.23874
G1 X66.230 Y114.130 E3.24337
G1 X65.600 Y112.180 E3.27427
G1 X65.380 Y111.330 E3.28752
G1 X65.330 Y111.040 E3.29195
G1 X65.080 Y108.710 E3.32730
G1 X65.040 Y107.940 E3.33892
G1 X65.040 Y82.050 E3.72939
G1 X65.080 Y81.280 E3.74101
G1 X65.330 Y78.950 E3.77636
G1 X65.440 Y78.380 E3.78511
G1 X65.600 Y77.810 E3.79404
G1 X66.230 Y75.860 E3.82495
G1 X66.330 Y75.570 E3.82957
G1 X66.570 Y75.000 E3.83890
G1 X66.710 Y74.730 E3.84349
G1 X67.890 Y72.690 E3.87903
G1 X68.200 Y72.190 E3.88790
G1 X68.560 Y71.720 E3.89683
G1 X70.490 Y69.601 E3.94005
G1 X70.530 Y69.560 E3.94092
G1 X70.800 Y69.840 F12000.000
G1 X71.440 Y69.310 F900.000 E3.95345
G1 X73.320 Y67.940 E3.98854
G1 X73.790 Y67.650 E3.99686
G1 X74.580 Y67.260 E4.01015
G1 X76.240 Y66.530 E4.03750
G1 X76.760 Y66.330 E4.04590
G1 X77.280 Y66.170 E4.05411
G1 X79.550 Y65.680 E4.08913
G1 X80.110 Y65.580 E4.09771
G1 X80.400 Y65.550 E4.10211
G1 X80.970 Y65.530 E4.11071
G1 X109.020 Y65.530 E4.53375
G1 X109.590 Y65.550 E4.54235
G1 X109.880 Y65.580 E4.54675
G1 X110.440 Y65.680 E4.55533
G1 X112.440 Y66.110 E4.58618
G1 X112.980 Y66.250 E4.59459
G1 X113.500 Y66.430 E4.60289
G1 X115.900 Y67.490 E4.64246
G1 X116.420 Y67.770 E4.65137
G1 X116.660 Y67.930 E4.65572
G1 X118.550 Y69.310 E4.69101
G1 X118.990 Y69.660 E4.69949
G1 X119.580 Y70.240 E4.71197
G1 X120.950 Y71.760 E4.74283
G1 X121.310 Y72.190 E4.75129
G1 X121.630 Y72.650 E4.75974
G1 X122.800 Y74.660 E4.79481
G1 X123.190 Y75.430 E4.80783
G1 X123.300 Y75.700 E4.81223
G1 X124.100 Y78.190 E4.85167
G1 X124.280 Y79.010 E4.86433
G1 X124.560 Y81.610 E4.90377
G1 X124.570 Y82.200 E4.91267
G1 X124.530 Y82.780 E4.92144
G1 X124.280 Y85.090 E4.95648
G1 X124.170 Y85.640 E4.96494
G1 X124.020 Y86.170 E4.97325
G1 X123.300 Y88.400 E5.00859
G1 X122.940 Y89.190 E5.02168
G1 X121.630 Y91.450 E5.06108
G1 X121.470 Y91.690 E5.06543
G1 X120.950 Y92.340 E5.07798
G1 X119.330 Y94.130 E5.11439
G1 X93.330 Y120.020 E5.66776
G1 X92.550 Y120.680 E5.68317
G1 X90.900 Y121.890 E5.71403
G1 X90.420 Y122.220 E5.72282
G1 X89.900 Y122.500 E5.73172
G1 X89.630 Y122.620 E5.73618
G1 X87.500 Y123.560 E5.77129
G1 X86.980 Y123.740 E5.77959
G1 X86.440 Y123.880 E5.78801
G1 X84.440 Y124.310 E5.81886
G1 X83.880 Y124.410 E5.82744
G1 X83.590 Y124.440 E5.83183
G1 X83.020 Y124.460 E5.84044
G1 X80.970 Y124.460 E5.87135
G1 X80.400 Y124.440 E5.87995
G1 X80.110 Y124.410 E5.88435
G1 X79.550 Y124.310 E5.89293
G1 X77.550 Y123.880 E5.92378
G1 X77.280 Y123.820 E5.92795
G1 X76.760 Y123.660 E5.93616
G1 X76.240 Y123.460 E5.94456
G1 X74.580 Y122.730 E5.97191
G1 X74.040 Y122.470 E5.98095
G1 X73.550 Y122.200 E5.98939
G1 X73.090 Y121.890 E5.99775
G1 X71.440 Y120.680 E6.02861
G1 X70.800 Y120.150 E6.04115
G1 X70.410 Y119.750 E6.04957
G1 X69.040 Y118.230 E6.08043
G1 X68.680 Y117.800 E6.08889
G1 X68.360 Y117.340 E6.09734
G1 X67.050 Y115.080 E6.13674
G1 X66.690 Y114.290 E6.14983
G1 X65.970 Y112.060 E6.18517
G1 X65.820 Y111.530 E6.19348
G1 X65.710 Y110.980 E6.20194
G1 X65.460 Y108.670 E6.23698
G1 X65.420 Y107.940 E6.24801
G1 X65.420 Y82.050 E6.63847
G1 X65.460 Y81.320 E6.64949
G1 X65.710 Y79.010 E6.68454
G1 X65.890 Y78.190 E6.69720
G1 X66.690 Y75.700 E6.73664
G1 X67.050 Y74.910 E6.74973
G1 X68.360 Y72.650 E6.78913
G1 X68.680 Y72.190 E6.79758
G1 X69.040 Y71.760 E6.80604
G1 X70.410 Y70.240 E6.83690
G1 X70.759 Y69.880 E6.84446
G1 X70.800 Y69.840 E6.84533
G1 X71.060 Y70.120 F12000.000
G1 X71.660 Y69.620 F900.000 E6.85710
G1 X73.310 Y68.410 E6.88796
G1 X73.980 Y67.980 E6.89997
G1 X74.670 Y67.650 E6.91151
G1 X76.400 Y66.890 E6.94000
G1 X76.880 Y66.700 E6.94779
G1 X77.630 Y66.490 E6.95953
G1 X79.890 Y66.010 E6.99438
G1 X80.700 Y65.920 E7.00667
G1 X109.290 Y65.920 E7.43785
G1 X109.830 Y65.970 E7.44603
G1 X110.360 Y66.060 E7.45414
G1 X112.360 Y66.490 E7.48499
G1 X112.870 Y66.620 E7.49293
G1 X113.600 Y66.890 E7.50467
G1 X115.480 Y67.720 E7.53566
G1 X115.980 Y67.960 E7.54403
G1 X116.680 Y68.410 E7.55658
G1 X118.330 Y69.620 E7.58743
G1 X118.930 Y70.120 E7.59921
G1 X120.840 Y72.210 E7.64191
G1 X121.150 Y72.630 E7.64979
G1 X121.440 Y73.080 E7.65786
G1 X122.470 Y74.850 E7.68875
G1 X122.840 Y75.580 E7.70109
G1 X123.030 Y76.100 E7.70944
G1 X123.660 Y78.050 E7.74034
G1 X123.800 Y78.550 E7.74818
G1 X123.930 Y79.330 E7.76010
G1 X124.170 Y81.640 E7.79513
G1 X124.180 Y82.190 E7.80342
G1 X124.150 Y82.730 E7.81158
G1 X123.930 Y84.770 E7.84252
G1 X123.800 Y85.550 E7.85445
G1 X123.660 Y86.050 E7.86228
G1 X123.030 Y88.000 E7.89319
G1 X122.840 Y88.520 E7.90154
G1 X122.600 Y89.010 E7.90977
G1 X121.300 Y91.250 E7.94883
G1 X120.840 Y91.890 E7.96071
G1 X119.060 Y93.850 E8.00064
G1 X93.060 Y119.740 E8.55401
G1 X92.330 Y120.370 E8.56856
G1 X90.680 Y121.580 E8.59941
G1 X90.220 Y121.890 E8.60778
G1 X89.980 Y122.030 E8.61197
G1 X89.480 Y122.270 E8.62033
G1 X87.600 Y123.100 E8.65133
G1 X86.870 Y123.370 E8.66307
G1 X86.360 Y123.500 E8.67100
G1 X84.360 Y123.930 E8.70186
G1 X83.830 Y124.020 E8.70996
G1 X83.290 Y124.070 E8.71814
G1 X80.700 Y124.070 E8.75720
G1 X80.160 Y124.020 E8.76538
G1 X79.630 Y123.930 E8.77349
G1 X77.630 Y123.500 E8.80434
G1 X76.880 Y123.290 E8.81609
G1 X76.400 Y123.100 E8.82388
G1 X74.210 Y122.130 E8.86000
G1 X73.750 Y121.870 E8.86797
G1 X73.310 Y121.580 E8.87592
G1 X71.660 Y120.370 E8.90677
G1 X71.060 Y119.870 E8.91855
G1 X69.150 Y117.780 E8.96125
G1 X68.690 Y117.140 E8.97314
G1 X67.390 Y114.900 E9.01220
G1 X67.150 Y114.410 E9.02043
G1 X66.960 Y113.890 E9.02878
G1 X66.330 Y111.940 E9.05968
G1 X66.190 Y111.440 E9.06752
G1 X66.060 Y110.660 E9.07944
G1 X65.840 Y108.620 E9.11039
G1 X65.810 Y107.940 E9.12065
G1 X65.810 Y82.050 E9.51111
G1 X65.840 Y81.370 E9.52138
G1 X66.060 Y79.330 E9.55232
G1 X66.190 Y78.550 E9.56425
G1 X66.330 Y78.050 E9.57208
G1 X67.050 Y75.840 E9.60713
G1 X67.150 Y75.580 E9.61134
G1 X67.390 Y75.090 E9.61956
G1 X68.550 Y73.080 E9.65456
G1 X68.990 Y72.420 E9.66653
G1 X69.150 Y72.210 E9.67051
G1 X71.019 Y70.160 E9.71234
G1 X71.060 Y70.120 E9.71321
G1 F1800.000 E8.71321
G92 E0
G1 X101.863 Y76.618 F12000.000
G1 F1800.000 E1.00000
G1 X103.343 Y75.307 F900.000 E1.02981
G1 X105.093 Y74.389 E1.05962
G1 X107.012 Y73.916 E1.08942
G1 X108.988 Y73.916 E1.11923
G1 X110.907 Y74.389 E1.14904
G1 X112.657 Y75.307 E1.17885
G1 X114.137 Y76.618 E1.20866
G1 X115.260 Y78.245 E1.23847
G1 X115.960 Y80.093 E1.26827
G1 X116.084 Y81.108 E1.28369
G1 X117.082 Y81.108 E1.29875
G1 X117.185 Y82.055 E1.31312
G1 X117.109 Y82.752 E1.32370
G1 X116.114 Y82.752 E1.33871
G1 X115.960 Y84.017 E1.35793
G1 X115.260 Y85.865 E1.38774
G1 X114.137 Y87.491 E1.41754
G1 X112.657 Y88.802 E1.44735
G1 X110.907 Y89.721 E1.47716
G1 X108.988 Y90.194 E1.50697
G1 X107.012 Y90.194 E1.53678
G1 X105.093 Y89.721 E1.56659
G1 X103.343 Y88.802 E1.59639
G1 X101.863 Y87.491 E1.62620
G1 X100.740 Y85.865 E1.65601
G1 X100.040 Y84.017 E1.68582
G1 X99.886 Y82.752 E1.70504
G1 X98.869 Y82.752 E1.72038
G1 X98.869 Y81.108 E1.74518
G1 X99.916 Y81.108 E1.76098
G1 X100.040 Y80.093 E1.77640
G1 X100.740 Y78.245 E1.80621
G1 X101.830 Y76.666 E1.83514
G1 X101.863 Y76.618 E1.83601
G1 X102.211 Y76.453 F12000.000
G1 F1800.000 E0.83601
G92 E0
G1 X110.909 Y91.009 F12000.000
G1 F1800.000 E1.00000
G1 X108.984 Y91.418 F900.000 E1.02968
G1 X107.016 Y91.418 E1.05937
G1 X105.091 Y91.009 E1.08905
G1 X103.293 Y90.208 E1.11874
G1 X101.700 Y89.051 E1.14842
G1 X100.383 Y87.589 E1.17810
G1 X99.399 Y85.884 E1.20779
G1 X98.791 Y84.012 E1.23747
G1 X98.699 Y83.137 E1.25075
G1 X99.545 Y83.137 E1.26351
G1 X99.663 Y84.110 E1.27829
G1 X100.397 Y86.045 E1.30950
G1 X101.573 Y87.749 E1.34072
G1 X103.122 Y89.121 E1.37194
G1 X104.955 Y90.083 E1.40316
G1 X105.492 Y90.215 E1.41149
G1 X106.965 Y90.578 E1.43438
G1 X109.035 Y90.578 E1.46559
G1 X111.045 Y90.083 E1.49681
G1 X112.878 Y89.121 E1.52803
G1 X114.427 Y87.749 E1.55925
G1 X115.603 Y86.045 E1.59046
G1 X116.337 Y84.110 E1.62168
G1 X116.455 Y83.137 E1.63646
G1 X117.301 Y83.137 E1.64922
G1 X117.209 Y84.012 E1.66250
G1 X116.601 Y85.884 E1.69218
G1 X115.617 Y87.589 E1.72186
G1 X114.300 Y89.051 E1.75155
G1 X112.707 Y90.208 E1.78123
G1 X110.962 Y90.985 E1.81005
G1 X110.909 Y91.009 E1.81092
G1 F1800.000 E0.81092
G92 E0
G1 X105.091 Y73.101 F12000.000
G1 F1800.000 E1.00000
G1 X107.016 Y72.692 F900.000 E1.02968
G1 X108.984 Y72.692 E1.05937
G1 X110.909 Y73.101 E1.08905
G1 X112.707 Y73.901 E1.11874
G1 X114.300 Y75.058 E1.14842
G1 X115.617 Y76.521 E1.17810
G1 X116.601 Y78.225 E1.20779
G1 X117.209 Y80.097 E1.23747
G1 X117.275 Y80.723 E1.24696
G1 X116.425 Y80.723 E1.25978
G1 X116.337 Y80.000 E1.27076
G1 X115.603 Y78.065 E1.30198
G1 X114.427 Y76.361 E1.33319
G1 X112.878 Y74.988 E1.36441
G1 X111.045 Y74.026 E1.39563
G1 X109.035 Y73.531 E1.42685
G1 X106.965 Y73.531 E1.45807
G1 X104.955 Y74.026 E1.48928
G1 X103.122 Y74.988 E1.52050
G1 X101.573 Y76.361 E1.55172
G1 X100.397 Y78.065 E1.58294
G1 X99.663 Y80.000 E1.61415
G1 X99.575 Y80.723 E1.62514
G1 X98.725 Y80.723 E1.63796
G1 X98.791 Y80.097 E1.64744
G1 X99.399 Y78.225 E1.67713
G1 X100.383 Y76.521 E1.70681
G1 X101.700 Y75.058 E1.73649
G1 X103.293 Y73.901 E1.76618
G1 X105.038 Y73.124 E1.79499
G1 X105.091 Y73.101 E1.79586
G1 X104.971 Y72.733 F12000.000
G1 X106.975 Y72.307 F900.000 E1.82677
G1 X109.025 Y72.307 E1.85767
G1 X111.029 Y72.733 E1.88857
G1 X111.249 Y72.831 E1.89220
G1 X112.901 Y73.566 E1.91948
G1 X114.559 Y74.771 E1.95038
G1 X115.930 Y76.293 E1.98128
G1 X116.954 Y78.068 E2.01219
G1 X117.588 Y80.017 E2.04309
G1 X117.802 Y82.055 E2.07400
G1 X117.588 Y84.093 E2.10490
G1 X116.954 Y86.042 E2.13580
G1 X115.930 Y87.816 E2.16671
G1 X114.559 Y89.339 E2.19761
G1 X112.901 Y90.543 E2.22852
G1 X111.249 Y91.279 E2.25579
G1 X111.029 Y91.377 E2.25942
G1 X109.025 Y91.803 E2.29032
G1 X106.975 Y91.803 E2.32123
G1 X104.971 Y91.377 E2.35213
G1 X103.099 Y90.543 E2.38304
G1 X101.441 Y89.339 E2.41394
G1 X100.070 Y87.816 E2.44484
G1 X99.046 Y86.042 E2.47575
G1 X98.412 Y84.093 E2.50665
G1 X98.198 Y82.055 E2.53756
G1 X98.412 Y80.017 E2.56846
G1 X99.046 Y78.068 E2.59936
G1 X100.070 Y76.293 E2.63027
G1 X101.441 Y74.771 E2.66117
G1 X103.099 Y73.566 E2.69208
G1 X104.918 Y72.756 E2.72211
G1 X104.971 Y72.733 E2.72298
G1 X105.368 Y72.775 F12000.000
G1 F1800.000 E1.72298
G92 E0
G1 X103.038 Y89.575 F12000.000
G1 F1800.000 E1.00000
G1 X102.793 Y89.330 F600.000 E1.00543
G1 X103.982 Y89.954 E1.02645
G1 X104.347 Y90.319 E1.03454
G1 X104.994 Y90.402 E1.04476
G1 X105.356 Y90.763 E1.05277
G1 X105.744 Y90.586 E1.05944
G1 X106.074 Y90.916 E1.06674
G1 X106.494 Y90.771 E1.07370
G1 X106.791 Y91.068 E1.08028
G1 X107.133 Y90.846 E1.08667
G1 X107.439 Y91.151 E1.09343
G1 X107.698 Y90.846 E1.09971
G1 X108.004 Y91.151 E1.10647
G1 X108.263 Y90.846 E1.11275
G1 X108.569 Y91.151 E1.11951
G1 X108.828 Y90.846 E1.12578
G1 X109.122 Y91.139 E1.13228
G1 X109.307 Y90.760 E1.13889
G1 X109.588 Y91.040 E1.14510
G1 X109.761 Y90.648 E1.15180
G1 X110.054 Y90.941 E1.15829
G1 X110.214 Y90.536 E1.16510
G1 X110.519 Y90.842 E1.17186
G1 X110.667 Y90.425 E1.17879
G1 X110.973 Y90.731 E1.18557
G1 X111.364 Y90.557 E1.19227
G1 X111.110 Y90.302 E1.19791
G1 X111.480 Y90.108 E1.20446
G1 X111.755 Y90.383 E1.21055
G1 X112.146 Y90.209 E1.21725
G1 X111.851 Y89.913 E1.22379
G1 X112.221 Y89.719 E1.23034
G1 X112.537 Y90.035 E1.23733
G1 X112.880 Y89.813 E1.24373
G1 X112.592 Y89.524 E1.25011
G1 X112.962 Y89.330 E1.25666
G1 X113.207 Y89.575 E1.26209
G1 F1800.000 E0.26209
G92 E0
G1 X102.085 Y88.883 F12000.000
G1 F1800.000 E1.00000
G1 X101.839 Y88.636 F600.000 E1.00526
G1 X101.380 Y88.100 F12000.000
G1 X99.844 Y85.966 F600.000 E1.04885
G1 X99.772 Y85.296 E1.06003
G1 X99.420 Y84.944 E1.06828
G1 X99.407 Y84.332 E1.07843
G1 X99.132 Y84.057 E1.08486
G1 X99.323 Y83.649 E1.09233
G1 X99.077 Y83.404 E1.09808
G1 X98.647 Y82.919 F12000.000
G1 X98.501 Y82.773 F600.000 E1.10041
G1 X98.651 Y82.518 E1.10372
G1 X98.453 Y82.320 E1.10686
G1 X98.651 Y82.113 E1.11008
G1 X98.427 Y81.889 E1.11363
G1 X98.651 Y81.708 E1.11686
G1 X98.466 Y81.523 E1.11979
G1 X98.651 Y81.303 E1.12302
G1 X98.504 Y81.156 E1.12534
G1 X99.280 Y80.456 F12000.000
G1 X99.035 Y80.211 F600.000 E1.13084
G1 X99.411 Y80.013 E1.13758
G1 X99.150 Y79.753 E1.14342
G1 X99.568 Y79.598 E1.15049
G1 X99.291 Y79.320 E1.15672
G1 X99.431 Y78.888 E1.16393
G1 X99.726 Y79.182 E1.17054
G1 X99.883 Y78.767 E1.17759
G1 X99.572 Y78.456 E1.18458
G1 X99.750 Y78.062 E1.19145
G1 X100.041 Y78.352 E1.19796
G1 X100.211 Y77.949 E1.20490
G1 X99.960 Y77.698 E1.21053
G1 X100.170 Y77.335 E1.21718
G1 X100.445 Y77.610 E1.22335
G1 X100.678 Y77.271 E1.22989
G1 X100.379 Y76.972 E1.23660
G1 X100.592 Y76.612 E1.24324
G1 X100.912 Y76.932 E1.25042
G1 X101.146 Y76.593 E1.25696
G1 X100.864 Y76.311 E1.26330
G1 X101.135 Y76.010 E1.26974
G1 X101.380 Y76.255 E1.27524
G1 X101.434 Y76.194 F12000.000
G1 X101.189 Y75.949 F600.000 E1.28092
G1 X101.469 Y75.638 E1.28778
G1 X101.748 Y75.917 E1.29423
G1 X102.061 Y75.639 E1.30109
G1 X101.750 Y75.327 E1.30832
G1 X102.072 Y75.058 E1.31520
G1 X102.375 Y75.361 E1.32222
G1 X102.689 Y75.083 E1.32909
G1 X102.415 Y74.809 E1.33544
G1 X102.757 Y74.560 E1.34237
G1 X103.002 Y74.805 E1.34805
G1 X103.038 Y74.780 F12000.000
G1 X102.793 Y74.535 F600.000 E1.35347
G1 X103.120 Y74.297 E1.35981
G1 X103.408 Y74.585 E1.36619
G1 X103.779 Y74.391 E1.37274
G1 X103.463 Y74.075 E1.37973
